;FLAVOR:Marlin
;TIME:2566
;Filament used: 1.10106m
;Layer height: 0.2
;MINX:63.413
;MINY:69.519
;MINZ:0.2
;MAXX:163.552
;MAXY:170.027
;MAXZ:1.6
;Generated with Cura_SteamEngine 5.2.1
M140 S50
M105
M190 S50
M104 S200
M105
M109 S200
M82 ;absolute extrusion mode
; Ender 3 Custom Start G-code
G92 E0 ; Reset Extruder
G28 ; Home all axes
G1 Z2.0 F3000 ; Move Z Axis up little to prevent scratching of Heat Bed
G1 X0.1 Y20 Z0.3 F5000.0 ; Move to start position
G1 X0.1 Y200.0 Z0.3 F1500.0 E15 ; Draw the first line
G1 X0.4 Y200.0 Z0.3 F5000.0 ; Move to side a little
G1 X0.4 Y20 Z0.3 F1500.0 E30 ; Draw the second line
G92 E0 ; Reset Extruder
G1 Z2.0 F3000 ; Move Z Axis up little to prevent scratching of Heat Bed
G1 X5 Y20 Z0.3 F5000.0 ; Move over to prevent blob squish
G92 E0
G92 E0
G1 F2700 E-5
;LAYER_COUNT:8
;LAYER:0
M107
G0 F6000 X71.969 Y76.853 Z0.2
;TYPE:SKIRT
G1 F2700 E0
G1 F1200 X72.595 Y76.272 E0.02841
G1 X73.092 Y75.845 E0.0502
G1 X73.992 Y75.117 E0.0887
G1 X74.829 Y74.48 E0.12368
G1 X75.303 Y74.144 E0.14301
G1 X75.807 Y73.813 E0.16306
G1 X76.415 Y73.432 E0.18693
G1 X77.156 Y72.984 E0.21573
G1 X77.945 Y72.551 E0.24566
G1 X78.796 Y72.129 E0.27726
G1 X79.702 Y71.703 E0.31056
G1 X80.521 Y71.361 E0.34007
G1 X81.162 Y71.123 E0.36282
G1 X82.405 Y70.695 E0.40654
G1 X83.339 Y70.421 E0.43892
G1 X84.11 Y70.232 E0.46532
G1 X85.31 Y69.968 E0.50618
G1 X86.342 Y69.794 E0.54099
G1 X87.474 Y69.659 E0.57891
G1 X88.462 Y69.566 E0.61192
G1 X89.429 Y69.521 E0.64411
G1 X90.405 Y69.519 E0.67658
G1 X91.642 Y69.547 E0.71773
G1 X92.643 Y69.618 E0.75111
G1 X93.885 Y69.768 E0.79272
G1 X95.049 Y69.938 E0.83184
G1 X96.03 Y70.128 E0.86508
G1 X97.276 Y70.435 E0.90776
G1 X98.18 Y70.692 E0.93902
G1 X98.91 Y70.928 E0.96453
G1 X99.738 Y71.22 E0.99374
G1 X100.9 Y71.671 E1.03519
G1 X101.627 Y71.981 E1.06148
G1 X102.06 Y72.182 E1.07736
G1 X102.727 Y72.514 E1.10214
G1 X103.423 Y72.883 E1.12834
G1 X103.961 Y73.189 E1.14892
G1 X104.702 Y73.637 E1.17772
G1 X105.059 Y73.862 E1.19176
G1 X105.541 Y74.185 E1.21106
G1 X106.098 Y74.577 E1.23371
G1 X106.858 Y75.147 E1.26531
G1 X107.536 Y75.693 E1.29426
G1 X108.084 Y76.162 E1.31825
G1 X108.456 Y76.495 E1.33486
G1 X110.874 Y78.738 E1.44456
G1 X112.778 Y80.401 E1.52864
G1 X114.733 Y82.013 E1.61291
G1 X116.684 Y83.531 E1.69513
G1 X118.753 Y85.049 E1.78048
G1 X120.823 Y86.48 E1.86418
G1 X122.911 Y87.836 E1.94699
G1 X125.065 Y89.151 E2.03093
G1 X127.25 Y90.402 E2.11467
G1 X129.722 Y91.72 E2.20784
G1 X131.061 Y92.466 E2.25882
G1 X131.692 Y92.838 E2.28319
G1 X132.303 Y93.232 E2.30737
G1 X133.435 Y94.022 E2.35328
G1 X133.842 Y94.324 E2.37014
G1 X134.373 Y94.744 E2.39265
G1 X135.165 Y95.411 E2.42709
G1 X135.798 Y95.972 E2.45523
G1 X136.307 Y96.46 E2.47868
G1 X137.081 Y97.25 E2.51546
G1 X137.662 Y97.876 E2.54387
G1 X138.089 Y98.373 E2.56566
G1 X138.817 Y99.273 E2.60416
G1 X139.448 Y100.101 E2.63879
G1 X139.824 Y100.635 E2.66051
G1 X140.247 Y101.286 E2.68633
G1 X140.902 Y102.356 E2.72806
G1 X141.343 Y103.148 E2.75821
G1 X141.723 Y103.902 E2.78629
G1 X142.891 Y106.172 E2.8712
G1 X144.133 Y108.427 E2.95683
G1 X145.386 Y110.556 E3.03899
G1 X146.726 Y112.694 E3.12291
G1 X148.126 Y114.792 E3.2068
G1 X149.592 Y116.86 E3.29112
G1 X151.095 Y118.859 E3.3743
G1 X152.676 Y120.84 E3.4586
G1 X154.278 Y122.737 E3.54118
G1 X155.834 Y124.464 E3.6185
G1 X155.925 Y124.574 E3.62325
G1 X156.744 Y125.478 E3.66382
G1 X157.082 Y125.868 E3.68098
G1 X157.77 Y126.715 E3.71728
G1 X158.275 Y127.377 E3.74497
G1 X158.602 Y127.829 E3.76352
G1 X158.892 Y128.252 E3.78058
G1 X159.416 Y129.05 E3.81234
G1 X159.699 Y129.506 E3.83019
G1 X160.003 Y130.025 E3.85019
G1 X160.524 Y130.968 E3.88602
G1 X160.787 Y131.479 E3.90514
G1 X161.045 Y132.015 E3.92492
G1 X161.396 Y132.795 E3.95337
G1 X161.838 Y133.872 E3.99209
G1 X162.144 Y134.732 E4.02245
G1 X162.429 Y135.65 E4.05442
G1 X162.556 Y136.089 E4.06962
G1 X162.784 Y136.977 E4.10012
G1 X162.932 Y137.629 E4.12235
G1 X163.019 Y138.05 E4.13665
G1 X163.138 Y138.689 E4.15827
G1 X163.211 Y139.134 E4.17327
G1 X163.345 Y140.113 E4.20613
G1 X163.457 Y141.177 E4.24172
G1 X163.511 Y141.875 E4.265
G1 X163.532 Y142.312 E4.27956
G1 X163.55 Y142.972 E4.30151
G1 X163.552 Y143.5 E4.31908
G1 X163.538 Y144.174 E4.3415
G1 X163.513 Y144.718 E4.35961
G1 X163.475 Y145.258 E4.37762
G1 X163.43 Y145.74 E4.39372
G1 X163.364 Y146.315 E4.41297
G1 X163.299 Y146.789 E4.42888
G1 X163.154 Y147.662 E4.45831
G1 X163.052 Y148.187 E4.4761
G1 X162.933 Y148.726 E4.49446
G1 X162.69 Y149.71 E4.52817
G1 X162.532 Y150.285 E4.54801
G1 X162.22 Y151.307 E4.58355
G1 X162.073 Y151.754 E4.5992
G1 X161.757 Y152.65 E4.6308
G1 X161.461 Y153.399 E4.65758
G1 X161.017 Y154.414 E4.69443
G1 X160.708 Y155.062 E4.71831
G1 X160.25 Y155.947 E4.75145
G1 X159.906 Y156.563 E4.77492
G1 X159.377 Y157.442 E4.80904
G1 X158.974 Y158.064 E4.83369
G1 X158.411 Y158.871 E4.86642
G1 X157.979 Y159.449 E4.89042
G1 X157.323 Y160.269 E4.92535
G1 X156.871 Y160.798 E4.94849
G1 X156.298 Y161.428 E4.97681
G1 X155.842 Y161.9 E4.99864
G1 X155.139 Y162.586 E5.03131
G1 X154.856 Y162.852 E5.04423
G1 X154.435 Y163.227 E5.06298
G1 X153.551 Y163.973 E5.10145
G1 X153.111 Y164.316 E5.12001
G1 X152.187 Y164.999 E5.15823
G1 X151.696 Y165.336 E5.17803
G1 X150.904 Y165.852 E5.20947
G1 X150.242 Y166.255 E5.23525
G1 X149.481 Y166.688 E5.26437
G1 X148.772 Y167.065 E5.29108
G1 X148.011 Y167.441 E5.31931
G1 X147.236 Y167.797 E5.34768
G1 X146.528 Y168.101 E5.3733
G1 X146.064 Y168.288 E5.38994
G1 X145.449 Y168.514 E5.41173
G1 X144.942 Y168.684 E5.42952
G1 X144.474 Y168.83 E5.44583
G1 X143.87 Y169.003 E5.46672
G1 X143.092 Y169.195 E5.49338
G1 X142.451 Y169.329 E5.51516
G1 X141.983 Y169.417 E5.53099
G1 X140.948 Y169.587 E5.56588
G1 X139.177 Y169.843 E5.6254
G1 X138.715 Y169.9 E5.64088
G1 X138.139 Y169.958 E5.66013
G1 X137.475 Y170.004 E5.68227
G1 X136.855 Y170.023 E5.7029
G1 X136.218 Y170.027 E5.72409
G1 X135.613 Y170.014 E5.74422
G1 X135.08 Y169.988 E5.76197
G1 X134.344 Y169.933 E5.78651
G1 X133.809 Y169.876 E5.80441
G1 X133.251 Y169.802 E5.82313
G1 X132.763 Y169.726 E5.83956
G1 X129.828 Y169.202 E5.93872
G1 X127.349 Y168.834 E6.02207
G1 X124.863 Y168.537 E6.10535
G1 X122.325 Y168.306 E6.19011
G1 X119.864 Y168.152 E6.27212
G1 X117.316 Y168.065 E6.35692
G1 X114.79 Y168.05 E6.44094
G1 X112.296 Y168.106 E6.52391
G1 X109.755 Y168.235 E6.60853
G1 X107.291 Y168.431 E6.69074
G1 X104.749 Y168.705 E6.77578
G1 X102.212 Y169.049 E6.86093
G1 X100.806 Y169.25 E6.90817
G1 X100.368 Y169.304 E6.92285
G1 X99.752 Y169.367 E6.94344
G1 X99.044 Y169.416 E6.96705
G1 X98.475 Y169.433 E6.98598
G1 X97.811 Y169.438 E7.00807
G1 X97.125 Y169.421 E7.03089
G1 X96.155 Y169.361 E7.06322
G1 X95.731 Y169.322 E7.07738
G1 X95.224 Y169.263 E7.09435
G1 X94.807 Y169.205 E7.10836
G1 X94.26 Y169.115 E7.12679
G1 X93.296 Y168.931 E7.15944
G1 X92.866 Y168.84 E7.17405
G1 X92.105 Y168.663 E7.20004
G1 X91.687 Y168.557 E7.21438
G1 X91.118 Y168.397 E7.23404
G1 X90.18 Y168.109 E7.26668
G1 X89.458 Y167.862 E7.29206
G1 X88.619 Y167.553 E7.3218
G1 X88.033 Y167.318 E7.3428
G1 X86.948 Y166.846 E7.38215
G1 X86.128 Y166.463 E7.41225
G1 X85.572 Y166.179 E7.43302
G1 X84.927 Y165.819 E7.45758
G1 X84.076 Y165.314 E7.4905
G1 X83.425 Y164.895 E7.51625
G1 X82.298 Y164.108 E7.56197
G1 X81.891 Y163.806 E7.57882
G1 X81.359 Y163.384 E7.60141
G1 X80.559 Y162.71 E7.6362
G1 X79.931 Y162.154 E7.6641
G1 X79.425 Y161.669 E7.68741
G1 X78.652 Y160.88 E7.72415
G1 X78.071 Y160.254 E7.75255
G1 X77.644 Y159.757 E7.77435
G1 X76.916 Y158.857 E7.81285
G1 X76.279 Y158.02 E7.84783
G1 X75.943 Y157.546 E7.86716
G1 X75.613 Y157.044 E7.88714
G1 X75.137 Y156.282 E7.91702
G1 X74.781 Y155.691 E7.93997
G1 X74.349 Y154.902 E7.96989
G1 X73.927 Y154.051 E8.00148
G1 X73.502 Y153.147 E8.0347
G1 X73.16 Y152.328 E8.06422
G1 X72.826 Y151.417 E8.0965
G1 X72.495 Y150.449 E8.13052
G1 X72.215 Y149.492 E8.16369
G1 X71.961 Y148.435 E8.19984
G1 X71.77 Y147.56 E8.22963
G1 X71.598 Y146.547 E8.26381
G1 X71.453 Y145.329 E8.3046
G1 X71.37 Y144.463 E8.33354
G1 X71.32 Y143.447 E8.36737
G1 X71.317 Y142.461 E8.40017
G1 X71.382 Y138.729 E8.52431
G1 X71.351 Y136.24 E8.6071
G1 X71.249 Y133.721 E8.69095
G1 X71.074 Y131.201 E8.77497
G1 X70.828 Y128.681 E8.85918
G1 X70.516 Y126.207 E8.94212
G1 X70.13 Y123.715 E9.02599
G1 X69.677 Y121.251 E9.10932
G1 X69.156 Y118.812 E9.19227
G1 X68.547 Y116.306 E9.27805
G1 X67.893 Y113.915 E9.36049
G1 X67.16 Y111.504 E9.44431
G1 X66.356 Y109.107 E9.5284
G1 X65.469 Y106.691 E9.614
G1 X65.145 Y105.865 E9.64351
G1 X64.949 Y105.327 E9.66256
G1 X64.718 Y104.634 E9.68685
G1 X64.536 Y104.029 E9.70786
G1 X64.415 Y103.582 E9.72327
G1 X64.284 Y103.046 E9.74162
G1 X64.09 Y102.12 E9.77309
G1 X63.876 Y100.914 E9.81382
G1 X63.724 Y99.911 E9.84757
G1 X63.589 Y98.934 E9.88037
G1 X63.484 Y97.977 E9.91239
G1 X63.436 Y97.321 E9.93427
G1 X63.417 Y96.699 E9.95496
G1 X63.413 Y95.964 E9.97941
G1 X63.426 Y95.369 E9.99921
G1 X63.48 Y94.448 E10.02989
G1 X63.524 Y93.958 E10.04625
G1 X63.583 Y93.443 E10.0635
G1 X63.665 Y92.847 E10.0835
G1 X63.743 Y92.36 E10.09991
G1 X63.839 Y91.837 E10.11759
G1 X63.947 Y91.319 E10.13519
G1 X64.16 Y90.408 E10.16631
G1 X64.257 Y90.025 E10.17945
G1 X64.474 Y89.241 E10.20651
G1 X64.649 Y88.664 E10.22656
G1 X64.843 Y88.069 E10.24738
G1 X65.231 Y86.985 E10.28567
G1 X65.481 Y86.353 E10.30828
G1 X65.998 Y85.158 E10.35158
G1 X66.31 Y84.487 E10.3762
G1 X66.622 Y83.883 E10.39881
G1 X67.18 Y82.88 E10.43698
G1 X67.556 Y82.243 E10.46158
G1 X67.951 Y81.629 E10.48587
G1 X68.533 Y80.789 E10.51986
G1 X69.043 Y80.092 E10.54858
G1 X69.463 Y79.561 E10.5711
G1 X70.13 Y78.769 E10.60554
G1 X70.691 Y78.136 E10.63367
G1 X71.179 Y77.627 E10.65712
G1 X71.969 Y76.853 E10.69391
G0 F6000 X72.249 Y77.138
G1 F1200 X72.865 Y76.567 E10.72184
G1 X73.344 Y76.156 E10.74284
G1 X74.555 Y75.185 E10.79446
G1 X75.069 Y74.8 E10.81582
G1 X75.526 Y74.476 E10.83446
G1 X76.019 Y74.152 E10.85408
G1 X76.786 Y73.673 E10.88415
G1 X77.362 Y73.326 E10.90652
G1 X78.123 Y72.91 E10.93537
G1 X79.204 Y72.377 E10.97545
G1 X79.871 Y72.066 E10.99993
G1 X80.66 Y71.736 E11.02837
G1 X81.567 Y71.403 E11.06051
G1 X82.534 Y71.073 E11.09449
G1 X83.434 Y70.81 E11.12568
G1 X84.205 Y70.621 E11.15208
G1 X85.395 Y70.359 E11.19261
G1 X86.39 Y70.192 E11.22617
G1 X87.823 Y70.025 E11.27415
G1 X88.498 Y69.964 E11.29669
G1 X89.43 Y69.921 E11.32773
G1 X90.406 Y69.919 E11.36019
G1 X91.632 Y69.947 E11.40097
G1 X92.596 Y70.015 E11.43312
G1 X93.827 Y70.164 E11.47436
G1 X94.991 Y70.334 E11.51348
G1 X95.937 Y70.517 E11.54553
G1 X96.798 Y70.724 E11.57499
G1 X97.746 Y70.981 E11.60765
G1 X98.415 Y71.185 E11.63092
G1 X98.777 Y71.305 E11.6436
G1 X99.605 Y71.597 E11.6728
G1 X100.753 Y72.043 E11.71377
G1 X101.466 Y72.347 E11.73955
G1 X101.884 Y72.541 E11.75487
G1 X102.539 Y72.868 E11.77922
G1 X103.235 Y73.237 E11.80542
G1 X103.754 Y73.531 E11.82526
G1 X104.495 Y73.979 E11.85406
G1 X104.839 Y74.196 E11.86759
G1 X105.311 Y74.513 E11.8865
G1 X105.868 Y74.905 E11.90915
G1 X106.347 Y75.257 E11.92893
G1 X107.032 Y75.796 E11.95792
G1 X107.817 Y76.46 E11.99211
G1 X108.189 Y76.793 E12.00872
G1 X110.624 Y79.052 E12.11919
G1 X112.507 Y80.696 E12.20233
G1 X114.479 Y82.322 E12.28734
G1 X116.465 Y83.867 E12.37103
G1 X118.518 Y85.373 E12.45572
G1 X120.576 Y86.795 E12.53892
G1 X122.705 Y88.179 E12.62337
G1 X124.848 Y89.487 E12.70688
G1 X127.069 Y90.759 E12.79201
G1 X129.527 Y92.069 E12.88465
G1 X130.866 Y92.815 E12.93563
G1 X131.487 Y93.181 E12.9596
G1 X132.076 Y93.561 E12.98291
G1 X132.915 Y94.142 E13.01686
G1 X133.603 Y94.645 E13.0452
G1 X134.115 Y95.05 E13.06692
G1 X134.907 Y95.717 E13.10136
G1 X135.53 Y96.27 E13.12906
G1 X136.022 Y96.74 E13.15169
G1 X136.796 Y97.53 E13.18848
G1 X137.367 Y98.146 E13.21641
G1 X137.778 Y98.625 E13.23741
G1 X138.743 Y99.828 E13.2887
G1 X139.128 Y100.341 E13.31003
G1 X139.491 Y100.856 E13.33099
G1 X139.906 Y101.495 E13.35633
G1 X140.561 Y102.565 E13.39806
G1 X140.986 Y103.328 E13.42711
G1 X142.558 Y106.397 E13.54179
G1 X143.766 Y108.591 E13.6251
G1 X145.062 Y110.792 E13.71005
G1 X146.387 Y112.908 E13.79309
G1 X147.799 Y115.023 E13.87767
G1 X149.261 Y117.086 E13.96177
G1 X150.772 Y119.094 E14.04535
G1 X152.373 Y121.102 E14.13077
G1 X153.959 Y122.979 E14.2125
G1 X155.537 Y124.731 E14.29092
G1 X155.625 Y124.838 E14.29553
G1 X156.448 Y125.746 E14.33629
G1 X156.773 Y126.123 E14.35285
G1 X157.452 Y126.958 E14.38864
G1 X157.957 Y127.62 E14.41633
G1 X158.272 Y128.055 E14.4342
G1 X158.694 Y128.675 E14.45914
G1 X159.082 Y129.269 E14.48274
G1 X159.353 Y129.709 E14.49993
G1 X159.809 Y130.495 E14.53015
G1 X160.173 Y131.16 E14.55537
G1 X160.426 Y131.653 E14.5738
G1 X160.824 Y132.491 E14.60465
G1 X161.168 Y133.282 E14.63334
G1 X161.467 Y134.022 E14.65989
G1 X161.762 Y134.85 E14.68912
G1 X162.047 Y135.768 E14.72109
G1 X162.169 Y136.191 E14.73573
G1 X162.394 Y137.066 E14.76578
G1 X162.626 Y138.123 E14.80178
G1 X162.745 Y138.762 E14.8234
G1 X162.816 Y139.191 E14.83786
G1 X162.947 Y140.155 E14.87022
G1 X163.059 Y141.219 E14.9058
G1 X163.112 Y141.902 E14.92858
G1 X163.132 Y142.323 E14.9426
G1 X163.15 Y142.983 E14.96456
G1 X163.152 Y143.492 E14.98149
G1 X163.138 Y144.166 E15.00391
G1 X163.114 Y144.69 E15.02136
G1 X163.076 Y145.23 E15.03937
G1 X163.033 Y145.695 E15.0549
G1 X162.967 Y146.27 E15.07415
G1 X162.904 Y146.726 E15.08946
G1 X162.761 Y147.586 E15.11846
G1 X162.659 Y148.111 E15.13624
G1 X162.545 Y148.63 E15.15392
G1 X162.302 Y149.614 E15.18763
G1 X162.149 Y150.168 E15.20674
G1 X161.837 Y151.19 E15.24228
G1 X161.696 Y151.621 E15.25737
G1 X161.38 Y152.517 E15.28897
G1 X161.094 Y153.239 E15.3148
G1 X160.65 Y154.254 E15.35164
G1 X160.353 Y154.878 E15.37463
G1 X159.895 Y155.763 E15.40777
G1 X159.563 Y156.357 E15.43041
G1 X159.034 Y157.236 E15.46453
G1 X158.645 Y157.835 E15.48828
G1 X158.082 Y158.642 E15.52101
G1 X157.666 Y159.199 E15.54413
G1 X157.01 Y160.019 E15.57906
G1 X156.575 Y160.529 E15.60135
G1 X156.002 Y161.159 E15.62968
G1 X155.563 Y161.613 E15.65068
G1 X154.587 Y162.556 E15.69582
G1 X154.176 Y162.923 E15.71415
G1 X153.576 Y163.434 E15.74036
G1 X153.126 Y163.8 E15.75965
G1 X152.251 Y164.459 E15.79609
G1 X151.476 Y165.002 E15.82756
G1 X150.694 Y165.512 E15.85861
G1 X150.303 Y165.753 E15.87389
G1 X149.292 Y166.336 E15.91271
G1 X148.592 Y166.708 E15.93907
G1 X147.842 Y167.079 E15.9669
G1 X147.321 Y167.321 E15.98601
G1 X146.637 Y167.621 E16.01085
G1 X145.914 Y167.917 E16.03683
G1 X145.322 Y168.135 E16.05782
G1 X144.815 Y168.305 E16.0756
G1 X144.364 Y168.445 E16.09131
G1 X143.76 Y168.618 E16.11221
G1 X143.01 Y168.804 E16.13791
G1 X142.369 Y168.938 E16.15969
G1 X141.918 Y169.022 E16.17495
G1 X140.883 Y169.192 E16.20983
G1 X139.121 Y169.447 E16.26905
G1 X138.675 Y169.502 E16.28399
G1 X138.099 Y169.56 E16.30325
G1 X137.459 Y169.605 E16.32459
G1 X136.853 Y169.623 E16.34475
G1 X136.216 Y169.627 E16.36594
G1 X135.633 Y169.614 E16.38533
G1 X134.738 Y169.565 E16.41515
G1 X134.377 Y169.535 E16.42719
G1 X133.861 Y169.479 E16.44446
G1 X133.303 Y169.405 E16.46318
G1 X132.833 Y169.332 E16.479
G1 X129.886 Y168.806 E16.57857
G1 X127.419 Y168.44 E16.66152
G1 X124.88 Y168.136 E16.74657
G1 X122.385 Y167.909 E16.82989
G1 X119.868 Y167.751 E16.91377
G1 X117.331 Y167.665 E16.9982
G1 X114.784 Y167.65 E17.08292
G1 X112.267 Y167.707 E17.16666
G1 X109.774 Y167.833 E17.24968
G1 X107.218 Y168.036 E17.33496
G1 X104.72 Y168.305 E17.41852
G1 X102.158 Y168.653 E17.50452
G1 X100.749 Y168.854 E17.55186
G1 X100.327 Y168.906 E17.566
G1 X99.711 Y168.969 E17.58659
G1 X99.029 Y169.017 E17.60933
G1 X98.472 Y169.033 E17.62787
G1 X97.808 Y169.038 E17.64995
G1 X97.147 Y169.022 E17.67194
G1 X96.582 Y168.991 E17.69076
G1 X95.768 Y168.923 E17.71793
G1 X95.279 Y168.867 E17.7343
G1 X94.862 Y168.809 E17.74831
G1 X94.335 Y168.722 E17.76607
G1 X93.371 Y168.538 E17.79871
G1 X92.957 Y168.45 E17.81279
G1 X92.196 Y168.273 E17.83878
G1 X91.793 Y168.171 E17.8526
G1 X91.234 Y168.014 E17.87191
G1 X90.584 Y167.817 E17.8945
G1 X89.908 Y167.596 E17.91816
G1 X88.758 Y167.178 E17.95886
G1 X88.193 Y166.951 E17.97911
G1 X87.108 Y166.479 E18.01846
G1 X86.3 Y166.102 E18.04812
G1 X85.764 Y165.828 E18.06814
G1 X85.132 Y165.475 E18.09222
G1 X84.281 Y164.97 E18.12513
G1 X83.653 Y164.567 E18.14995
G1 X82.816 Y163.987 E18.18382
