;FLAVOR:Marlin
;TIME:2476
;Filament used: 1.14479m
;Layer height: 0.2
;MINX:73.026
;MINY:71.073
;MINZ:0.2
;MAXX:183.879
;MAXY:165.589
;MAXZ:2
;Generated with Cura_SteamEngine 5.2.1
M140 S50
M105
M190 S50
M104 S200
M105
M109 S200
M82 ;absolute extrusion mode
; Ender 3 Custom Start G-code
G92 E0 ; Reset Extruder
G28 ; Home all axes
G1 Z2.0 F3000 ; Move Z Axis up little to prevent scratching of Heat Bed
G1 X0.1 Y20 Z0.3 F5000.0 ; Move to start position
G1 X0.1 Y200.0 Z0.3 F1500.0 E15 ; Draw the first line
G1 X0.4 Y200.0 Z0.3 F5000.0 ; Move to side a little
G1 X0.4 Y20 Z0.3 F1500.0 E30 ; Draw the second line
G92 E0 ; Reset Extruder
G1 Z2.0 F3000 ; Move Z Axis up little to prevent scratching of Heat Bed
G1 X5 Y20 Z0.3 F5000.0 ; Move over to prevent blob squish
G92 E0
G92 E0
G1 F2700 E-5
;LAYER_COUNT:10
;LAYER:0
M107
G0 F6000 X92.689 Y92.807 Z0.2
;TYPE:SKIRT
G1 F2700 E0
G1 F1200 X93.479 Y92.033 E0.03678
G1 X94.105 Y91.452 E0.06519
G1 X94.602 Y91.025 E0.08698
G1 X95.502 Y90.297 E0.12549
G1 X96.339 Y89.66 E0.16047
G1 X96.813 Y89.324 E0.17979
G1 X97.315 Y88.994 E0.19978
G1 X97.91 Y88.621 E0.22313
G1 X98.664 Y88.165 E0.25244
G1 X99.451 Y87.733 E0.2823
G1 X100.528 Y87.202 E0.32224
G1 X101.428 Y86.782 E0.35527
G1 X103.722 Y85.673 E0.44002
G1 X106.001 Y84.491 E0.52541
G1 X108.165 Y83.289 E0.60774
G1 X110.338 Y82.001 E0.69176
G1 X112.481 Y80.648 E0.77605
G1 X114.572 Y79.243 E0.85984
G1 X116.605 Y77.792 E0.94291
G1 X118.643 Y76.247 E1.02797
G1 X120.6 Y74.677 E1.11142
G1 X121.806 Y73.663 E1.16383
G1 X122.548 Y73.091 E1.19499
G1 X123.338 Y72.584 E1.22621
G1 X124.167 Y72.146 E1.25739
G1 X125.03 Y71.78 E1.28857
G1 X125.922 Y71.489 E1.31978
G1 X126.835 Y71.275 E1.35097
G1 X127.763 Y71.14 E1.38216
G1 X128.546 Y71.088 E1.40826
G1 X129.209 Y71.073 E1.43031
G1 X172.314 Y71.074 E2.86399
G1 X173.012 Y71.083 E2.88721
G1 X173.948 Y71.135 E2.91839
G1 X174.877 Y71.267 E2.9496
G1 X175.791 Y71.477 E2.98079
G1 X176.684 Y71.764 E3.01199
G1 X177.549 Y72.127 E3.04319
G1 X178.38 Y72.561 E3.07437
G1 X179.171 Y73.065 E3.10557
G1 X179.916 Y73.635 E3.13676
G1 X180.61 Y74.266 E3.16796
G1 X181.247 Y74.953 E3.19912
G1 X181.824 Y75.693 E3.23033
G1 X182.336 Y76.479 E3.26153
G1 X182.779 Y77.306 E3.29274
G1 X183.15 Y78.167 E3.32392
G1 X183.446 Y79.057 E3.35511
G1 X183.665 Y79.969 E3.38631
G1 X183.806 Y80.896 E3.4175
G1 X183.866 Y81.774 E3.44677
G1 X183.879 Y82.403 E3.46769
G1 X183.878 Y94.522 E3.87077
G1 X183.868 Y95.227 E3.89422
G1 X183.815 Y96.163 E3.9254
G1 X183.682 Y97.092 E3.95662
G1 X183.47 Y98.006 E3.98782
G1 X183.182 Y98.898 E4.019
G1 X182.958 Y99.455 E4.03897
G1 X182.749 Y99.936 E4.05641
G1 X182.048 Y101.487 E4.11302
G1 X181.073 Y103.814 E4.19694
G1 X180.147 Y106.22 E4.28268
G1 X179.333 Y108.522 E4.36389
G1 X178.551 Y110.953 E4.44883
G1 X177.859 Y113.329 E4.53114
G1 X176.952 Y116.881 E4.65307
G1 X176.635 Y118.001 E4.69179
G1 X176.491 Y118.464 E4.70791
G1 X176.257 Y119.161 E4.73237
G1 X176.062 Y119.696 E4.75131
G1 X175.649 Y120.743 E4.78874
G1 X175.311 Y121.531 E4.81726
G1 X175.114 Y121.952 E4.83272
G1 X174.798 Y122.584 E4.85622
G1 X174.435 Y123.269 E4.882
G1 X174.16 Y123.761 E4.90075
G1 X173.981 Y124.063 E4.91243
G1 X173.464 Y124.895 E4.94501
G1 X173.112 Y125.42 E4.96603
G1 X172.749 Y125.936 E4.98701
G1 X172.38 Y126.436 E5.00768
G1 X171.613 Y127.399 E5.04863
G1 X171.155 Y127.933 E5.07203
G1 X170.606 Y128.539 E5.09923
G1 X170.085 Y129.08 E5.12421
G1 X169.542 Y129.618 E5.14963
G1 X167.695 Y131.503 E5.23741
G1 X165.985 Y133.349 E5.3211
G1 X164.335 Y135.236 E5.40447
G1 X162.735 Y137.174 E5.48806
G1 X161.189 Y139.156 E5.57166
G1 X159.68 Y141.21 E5.65643
G1 X158.271 Y143.245 E5.73876
G1 X156.879 Y145.382 E5.82358
G1 X155.582 Y147.502 E5.90624
G1 X154.317 Y149.71 E5.99088
G1 X153.136 Y151.91 E6.07393
G1 X151.87 Y154.446 E6.1682
G1 X151.52 Y155.11 E6.19317
G1 X151.274 Y155.541 E6.20967
G1 X150.775 Y156.335 E6.24086
G1 X150.26 Y157.022 E6.26942
G1 X150.018 Y157.32 E6.28219
G1 X149.396 Y158.023 E6.31341
G1 X148.78 Y158.614 E6.3418
G1 X148.487 Y158.874 E6.35483
G1 X147.76 Y159.466 E6.38601
G1 X147.189 Y159.863 E6.40915
G1 X146.776 Y160.132 E6.42554
G1 X145.97 Y160.61 E6.45671
G1 X145.234 Y160.97 E6.48396
G1 X144.808 Y161.159 E6.49946
G1 X143.935 Y161.502 E6.53065
G1 X143.297 Y161.701 E6.55288
G1 X142.927 Y161.804 E6.56566
G1 X141.788 Y162.057 E6.60446
G1 X141.183 Y162.158 E6.62486
G1 X140.252 Y162.273 E6.65607
G1 X139.672 Y162.304 E6.67538
G1 X139.123 Y162.319 E6.69365
G1 X138.306 Y162.311 E6.72082
G1 X137.123 Y162.255 E6.76022
G1 X134.524 Y162.169 E6.84671
G1 X132.11 Y162.152 E6.927
G1 X129.526 Y162.189 E7.01295
G1 X127.957 Y162.264 E7.0652
G1 X127.689 Y162.265 E7.07411
G1 X126.409 Y162.315 E7.11672
G1 X125.477 Y162.311 E7.14771
G1 X124.139 Y162.249 E7.19226
G1 X121.559 Y162.167 E7.27812
G1 X119.876 Y162.152 E7.3341
G1 X116.991 Y162.152 E7.43005
G1 X114.384 Y162.189 E7.51677
G1 X111.862 Y162.296 E7.60073
G1 X109.368 Y162.473 E7.68389
G1 X106.868 Y162.721 E7.76745
G1 X104.375 Y163.04 E7.85104
G1 X101.882 Y163.431 E7.93497
G1 X99.392 Y163.894 E8.01921
G1 X96.897 Y164.431 E8.10409
G1 X94.431 Y165.025 E8.18846
G1 X93.574 Y165.216 E8.21766
G1 X92.65 Y165.379 E8.24887
G1 X92.066 Y165.44 E8.2684
G1 X91.12 Y165.512 E8.29995
G1 X90.354 Y165.554 E8.32547
G1 X89.947 Y165.568 E8.33901
G1 X88.679 Y165.589 E8.38119
G1 X84.572 Y165.588 E8.51779
G1 X83.874 Y165.578 E8.54101
G1 X82.938 Y165.524 E8.57219
G1 X82.01 Y165.392 E8.60337
G1 X81.096 Y165.18 E8.63458
G1 X80.204 Y164.891 E8.66576
G1 X79.339 Y164.528 E8.69696
G1 X78.509 Y164.092 E8.72815
G1 X77.718 Y163.587 E8.75936
G1 X76.974 Y163.016 E8.79055
G1 X76.281 Y162.384 E8.82175
G1 X75.644 Y161.696 E8.85293
G1 X75.069 Y160.955 E8.88413
G1 X74.558 Y160.169 E8.91531
G1 X74.116 Y159.341 E8.94653
G1 X73.747 Y158.479 E8.97771
G1 X73.452 Y157.589 E9.0089
G1 X73.234 Y156.677 E9.04009
G1 X73.094 Y155.749 E9.0713
G1 X73.036 Y154.875 E9.10043
G1 X73.026 Y154.159 E9.12425
G1 X73.043 Y153.298 E9.15289
G1 X73.09 Y152.201 E9.18941
G1 X73.133 Y151.418 E9.2155
G1 X73.202 Y148.879 E9.29997
G1 X73.2 Y146.388 E9.38283
G1 X73.106 Y143.389 E9.48262
G1 X73.051 Y142.221 E9.52151
G1 X73.03 Y141.272 E9.55308
G1 X73.035 Y140.606 E9.57524
G1 X73.091 Y139.67 E9.60642
G1 X73.225 Y138.741 E9.63764
G1 X73.439 Y137.828 E9.66883
G1 X73.729 Y136.936 E9.70003
G1 X74.095 Y136.073 E9.73121
G1 X74.509 Y135.282 E9.7609
G1 X75.088 Y134.28 E9.79939
G1 X76.356 Y132.009 E9.8859
G1 X77.516 Y129.787 E9.96927
G1 X78.612 Y127.531 E10.05269
G1 X79.657 Y125.219 E10.13708
G1 X80.616 Y122.925 E10.21978
G1 X81.534 Y120.542 E10.30471
G1 X82.374 Y118.163 E10.38863
G1 X83.131 Y115.808 E10.4709
G1 X83.845 Y113.356 E10.55584
G1 X84.47 Y110.951 E10.63849
G1 X85.041 Y108.474 E10.72304
G1 X85.209 Y107.629 E10.75169
G1 X85.357 Y106.942 E10.77506
G1 X85.672 Y105.583 E10.82146
G1 X85.763 Y105.219 E10.83394
G1 X85.984 Y104.421 E10.86148
G1 X86.159 Y103.844 E10.88154
G1 X86.361 Y103.225 E10.90319
G1 X86.792 Y102.034 E10.94532
G1 X87.034 Y101.428 E10.96702
G1 X87.517 Y100.317 E11.00732
G1 X87.82 Y99.668 E11.03114
G1 X88.132 Y99.062 E11.05381
G1 X88.69 Y98.059 E11.09198
G1 X89.064 Y97.425 E11.11647
G1 X89.452 Y96.824 E11.14026
G1 X90.059 Y95.948 E11.17571
G1 X90.564 Y95.259 E11.20412
G1 X90.981 Y94.733 E11.22645
G1 X91.652 Y93.937 E11.26107
G1 X92.192 Y93.327 E11.28817
G1 X92.689 Y92.807 E11.31209
G0 F6000 X92.969 Y93.092
G1 F1200 X93.759 Y92.318 E11.34888
G1 X94.375 Y91.747 E11.37681
G1 X94.854 Y91.336 E11.39781
G1 X96.065 Y90.365 E11.44943
G1 X96.579 Y89.98 E11.47079
G1 X97.036 Y89.656 E11.48942
G1 X97.528 Y89.333 E11.509
G1 X98.281 Y88.862 E11.53854
G1 X98.87 Y88.507 E11.56141
G1 X99.629 Y88.092 E11.59019
G1 X100.697 Y87.564 E11.62981
G1 X101.622 Y87.132 E11.66377
G1 X103.929 Y86.017 E11.74899
G1 X106.146 Y84.867 E11.83206
G1 X108.411 Y83.609 E11.91823
G1 X110.55 Y82.342 E12.00092
G1 X112.671 Y81.002 E12.08436
G1 X114.805 Y79.568 E12.16988
G1 X116.85 Y78.108 E12.25345
G1 X118.872 Y76.576 E12.33782
G1 X120.847 Y74.991 E12.42205
G1 X122.063 Y73.969 E12.47488
G1 X122.793 Y73.408 E12.5055
G1 X123.568 Y72.912 E12.53611
G1 X124.384 Y72.485 E12.56674
G1 X125.234 Y72.131 E12.59736
G1 X126.111 Y71.852 E12.62797
G1 X127.01 Y71.65 E12.65862
G1 X127.922 Y71.527 E12.68923
G1 X128.558 Y71.488 E12.71042
G1 X129.209 Y71.473 E12.73208
G1 X172.309 Y71.474 E14.16559
G1 X173.007 Y71.483 E14.18881
G1 X173.926 Y71.535 E14.21942
G1 X174.837 Y71.666 E14.25004
G1 X175.733 Y71.876 E14.28064
G1 X176.608 Y72.163 E14.31127
G1 X177.455 Y72.525 E14.34191
G1 X178.267 Y72.959 E14.37253
G1 X179.038 Y73.461 E14.40313
G1 X179.763 Y74.029 E14.43376
G1 X180.436 Y74.658 E14.4644
G1 X181.051 Y75.342 E14.495
G1 X181.605 Y76.077 E14.52561
G1 X182.093 Y76.858 E14.55624
G1 X182.512 Y77.678 E14.58687
G1 X182.858 Y78.531 E14.61748
G1 X183.128 Y79.411 E14.6481
G1 X183.321 Y80.312 E14.67875
G1 X183.435 Y81.225 E14.70935
G1 X183.466 Y81.785 E14.728
G1 X183.479 Y82.403 E14.74856
G1 X183.478 Y94.516 E15.15144
G1 X183.468 Y95.221 E15.17489
G1 X183.415 Y96.14 E15.20551
G1 X183.282 Y97.052 E15.23616
G1 X183.071 Y97.948 E15.26678
G1 X182.783 Y98.822 E15.29739
G1 X182.591 Y99.295 E15.31437
G1 X182.382 Y99.776 E15.33181
G1 X181.678 Y101.333 E15.38864
G1 X180.69 Y103.694 E15.47377
G1 X179.784 Y106.048 E15.55766
G1 X178.947 Y108.414 E15.64113
G1 X178.175 Y110.814 E15.72499
G1 X177.467 Y113.245 E15.8092
G1 X176.564 Y116.782 E15.93061
G1 X176.251 Y117.89 E15.96891
G1 X176.112 Y118.337 E15.98448
G1 X175.878 Y119.034 E16.00893
G1 X175.69 Y119.55 E16.0272
G1 X175.277 Y120.597 E16.06463
G1 X174.945 Y121.369 E16.09258
G1 X174.755 Y121.775 E16.10749
G1 X174.444 Y122.396 E16.13059
G1 X174.081 Y123.081 E16.15638
G1 X173.812 Y123.563 E16.17474
G1 X173.64 Y123.854 E16.18598
G1 X173.13 Y124.675 E16.21813
G1 X172.785 Y125.19 E16.23874
G1 X172.422 Y125.706 E16.25973
G1 X171.87 Y126.443 E16.29035
G1 X171.308 Y127.141 E16.32016
G1 X170.857 Y127.667 E16.3432
G1 X170.532 Y128.03 E16.35941
G1 X170.025 Y128.57 E16.38404
G1 X169.252 Y129.341 E16.42036
G1 X167.398 Y131.234 E16.50849
G1 X165.707 Y133.06 E16.59126
G1 X164.027 Y134.981 E16.67614
G1 X162.423 Y136.923 E16.75991
G1 X160.867 Y138.92 E16.84412
G1 X159.378 Y140.945 E16.92772
G1 X157.924 Y143.045 E17.01267
G1 X156.536 Y145.176 E17.09726
G1 X155.237 Y147.3 E17.18007
G1 X153.975 Y149.501 E17.26445
G1 X152.761 Y151.764 E17.34987
G1 X151.51 Y154.272 E17.44308
G1 X151.173 Y154.911 E17.46711
G1 X150.927 Y155.342 E17.48362
G1 X150.436 Y156.121 E17.51424
G1 X149.949 Y156.77 E17.54123
G1 X149.707 Y157.068 E17.554
G1 X149.097 Y157.757 E17.58461
G1 X148.515 Y158.315 E17.61142
G1 X148.222 Y158.575 E17.62445
G1 X147.507 Y159.155 E17.65507
G1 X146.971 Y159.528 E17.67679
G1 X146.558 Y159.797 E17.69319
G1 X145.766 Y160.266 E17.7238
G1 X145.072 Y160.604 E17.74947
G1 X144.646 Y160.793 E17.76498
G1 X143.789 Y161.13 E17.7956
G1 X143.19 Y161.316 E17.81646
G1 X142.82 Y161.419 E17.82924
G1 X141.722 Y161.662 E17.86664
G1 X141.117 Y161.763 E17.88704
G1 X140.204 Y161.875 E17.91764
G1 X139.662 Y161.904 E17.93569
G1 X139.113 Y161.919 E17.95396
G1 X138.325 Y161.911 E17.98017
G1 X137.154 Y161.856 E18.01916
G1 X134.542 Y161.769 E18.10608
G1 X132.104 Y161.752 E18.18717
G1 X129.531 Y161.788 E18.27276
G1 X127.938 Y161.865 E18.3258
G1 X127.652 Y161.866 E18.33532
G1 X126.393 Y161.915 E18.37722
G1 X125.495 Y161.912 E18.40709
G1 X124.168 Y161.851 E18.45127
G1 X121.532 Y161.767 E18.53899
G1 X119.879 Y161.752 E18.59397
G1 X116.985 Y161.752 E18.69023
G1 X114.362 Y161.789 E18.77748
G1 X111.853 Y161.896 E18.861
G1 X109.333 Y162.074 E18.94503
G1 X106.818 Y162.323 E19.02909
G1 X104.329 Y162.642 E19.11255
G1 X101.777 Y163.043 E19.19847
G1 X99.346 Y163.495 E19.28071
G1 X96.807 Y164.041 E19.36709
G1 X94.137 Y164.683 E19.45842
G1 X93.488 Y164.826 E19.48053
G1 X92.581 Y164.985 E19.51115
G1 X92.035 Y165.042 E19.52941
G1 X91.346 Y165.096 E19.5524
G1 X90.332 Y165.154 E19.58618
G1 X89.94 Y165.168 E19.59923
G1 X88.679 Y165.189 E19.64117
G1 X84.578 Y165.188 E19.77757
G1 X83.88 Y165.178 E19.80079
G1 X82.961 Y165.125 E19.83141
G1 X82.05 Y164.992 E19.86203
G1 X81.154 Y164.781 E19.89264
G1 X80.28 Y164.493 E19.92325
G1 X79.433 Y164.13 E19.9539
G1 X78.622 Y163.695 E19.98451
G1 X77.852 Y163.191 E20.01512
G1 X77.128 Y162.622 E20.04575
G1 X76.456 Y161.992 E20.07638
G1 X75.841 Y161.307 E20.107
G1 X75.288 Y160.571 E20.13762
G1 X74.801 Y159.79 E20.16823
G1 X74.384 Y158.969 E20.19886
G1 X74.039 Y158.115 E20.22949
G1 X73.77 Y157.235 E20.2601
G1 X73.578 Y156.334 E20.29074
G1 X73.465 Y155.421 E20.32134
G1 X73.436 Y154.864 E20.33989
G1 X73.426 Y154.165 E20.36314
G1 X73.443 Y153.315 E20.39142
G1 X73.496 Y152.089 E20.43223
G1 X73.533 Y151.415 E20.45468
G1 X73.602 Y148.889 E20.53873
G1 X73.6 Y146.374 E20.62238
G1 X73.506 Y143.362 E20.72261
G1 X73.44 Y141.876 E20.77208
G1 X73.43 Y141.265 E20.79241
G1 X73.435 Y140.612 E20.81413
G1 X73.49 Y139.693 E20.84475
G1 X73.625 Y138.783 E20.87534
G1 X73.838 Y137.887 E20.90598
G1 X74.128 Y137.013 E20.9366
G1 X74.492 Y136.168 E20.9672
G1 X74.856 Y135.482 E20.99303
G1 X75.441 Y134.469 E21.03194
G1 X76.71 Y132.196 E21.11853
G1 X77.873 Y129.968 E21.20212
G1 X78.979 Y127.692 E21.28628
G1 X80.02 Y125.389 E21.37034
G1 X80.995 Y123.057 E21.45441
G1 X81.91 Y120.682 E21.53906
G1 X82.746 Y118.313 E21.62262
G1 X83.51 Y115.936 E21.70566
G1 X84.23 Y113.462 E21.79136
G1 X84.863 Y111.027 E21.87504
G1 X85.428 Y108.576 E21.9587
G1 X85.601 Y107.707 E21.98817
G1 X85.809 Y106.75 E22.02074
G1 X86.061 Y105.674 E22.0575
G1 X86.15 Y105.324 E22.06951
G1 X86.367 Y104.537 E22.09666
G1 X86.542 Y103.96 E22.11672
G1 X86.741 Y103.351 E22.13803
G1 X87.167 Y102.172 E22.17972
G1 X87.401 Y101.588 E22.20065
G1 X87.884 Y100.477 E22.24094
G1 X88.181 Y99.84 E22.26432
G1 X88.482 Y99.257 E22.28614
G1 X89.04 Y98.254 E22.32431
G1 X89.407 Y97.631 E22.34836
G1 X89.781 Y97.052 E22.37129
G1 X90.388 Y96.176 E22.40674
G1 X90.885 Y95.498 E22.4347
G1 X91.286 Y94.991 E22.4562
G1 X91.957 Y94.195 E22.49082
G1 X92.49 Y93.593 E22.51757
G1 X92.969 Y93.092 E22.54062
G0 F6000 X93.249 Y93.378
G1 F1200 X94.039 Y92.604 E22.5774
G1 X94.645 Y92.043 E22.60487
G1 X95.105 Y91.647 E22.62506
G1 X96.005 Y90.919 E22.66356
G1 X96.819 Y90.3 E22.69757
G1 X97.259 Y89.989 E22.71549
G1 X97.74 Y89.672 E22.73465
G1 X98.488 Y89.205 E22.76398
G1 X99.077 Y88.85 E22.78686
G1 X99.807 Y88.45 E22.81454
G1 X100.867 Y87.927 E22.85386
G1 X101.729 Y87.525 E22.88549
G1 X104.109 Y86.374 E22.97342
G1 X106.36 Y85.206 E23.05777
G1 X108.588 Y83.969 E23.14253
G1 X110.762 Y82.681 E23.22657
G1 X112.886 Y81.339 E23.31014
G1 X115.031 Y79.898 E23.39608
G1 X117.084 Y78.432 E23.47999
G1 X119.118 Y76.891 E23.56486
G1 X121.094 Y75.306 E23.64911
G1 X122.32 Y74.275 E23.70239
G1 X123.037 Y73.725 E23.73245
G1 X123.799 Y73.241 E23.76247
G1 X124.601 Y72.826 E23.79251
G1 X125.436 Y72.483 E23.82253
G1 X126.299 Y72.216 E23.85258
G1 X127.182 Y72.026 E23.88262
G1 X128.078 Y71.915 E23.91265
G1 X128.57 Y71.888 E23.92904
G1 X129.209 Y71.873 E23.9503
G1 X172.304 Y71.874 E25.38364
G1 X173.002 Y71.883 E25.40686
G1 X173.903 Y71.934 E25.43687
G1 X174.797 Y72.066 E25.46693
G1 X175.675 Y72.275 E25.49695
G1 X176.532 Y72.562 E25.52701
G1 X177.359 Y72.923 E25.55702
G1 X178.152 Y73.356 E25.58707
G1 X178.903 Y73.857 E25.6171
G1 X179.607 Y74.423 E25.64714
G1 X180.258 Y75.049 E25.67718
G1 X180.851 Y75.73 E25.70722
G1 X181.381 Y76.461 E25.73725
G1 X181.845 Y77.236 E25.76729
G1 X182.239 Y78.049 E25.79734
G1 X182.559 Y78.893 E25.82736
G1 X182.803 Y79.763 E25.85741
G1 X182.969 Y80.651 E25.88746
G1 X183.066 Y81.796 E25.92568
G1 X183.079 Y82.403 E25.94587
G1 X183.078 Y94.511 E26.34859
G1 X183.068 Y95.216 E26.37204
G1 X183.015 Y96.117 E26.40206
G1 X182.883 Y97.011 E26.43211
G1 X182.672 Y97.889 E26.46215
G1 X182.224 Y99.136 E26.50622
G1 X181.953 Y99.758 E26.52878
G1 X181.298 Y101.205 E26.58161
G1 X180.329 Y103.521 E26.66511
G1 X179.405 Y105.919 E26.75059
G1 X178.565 Y108.295 E26.83441
G1 X177.793 Y110.695 E26.91826
G1 X177.086 Y113.124 E27.0024
G1 X176.177 Y116.683 E27.12457
G1 X175.866 Y117.78 E27.1625
G1 X175.733 Y118.209 E27.17744
G1 X175.499 Y118.906 E27.20189
G1 X175.317 Y119.403 E27.21949
G1 X174.904 Y120.45 E27.25693
G1 X174.579 Y121.208 E27.28436
