;FLAVOR:Marlin
;TIME:7744
;Filament used: 5.62774m
;Layer height: 0.2
;MINX:28.467
;MINY:22.677
;MINZ:0.2
;MAXX:204.786
;MAXY:198.917
;MAXZ:5
;Generated with Cura_SteamEngine 5.2.1
M140 S50
M105
M190 S50
M104 S200
M105
M109 S200
M82 ;absolute extrusion mode
; Ender 3 Custom Start G-code
G92 E0 ; Reset Extruder
G28 ; Home all axes
G1 Z2.0 F3000 ; Move Z Axis up little to prevent scratching of Heat Bed
G1 X0.1 Y20 Z0.3 F5000.0 ; Move to start position
G1 X0.1 Y200.0 Z0.3 F1500.0 E15 ; Draw the first line
G1 X0.4 Y200.0 Z0.3 F5000.0 ; Move to side a little
G1 X0.4 Y20 Z0.3 F1500.0 E30 ; Draw the second line
G92 E0 ; Reset Extruder
G1 Z2.0 F3000 ; Move Z Axis up little to prevent scratching of Heat Bed
G1 X5 Y20 Z0.3 F5000.0 ; Move over to prevent blob squish
G92 E0
G92 E0
G1 F2700 E-5
;LAYER_COUNT:25
;LAYER:0
M107
;MESH:Terrific Turing-2.stl
G0 F6000 X122.624 Y110.831 Z0.2
;TYPE:WALL-INNER
G1 F2700 E0
G1 F1200 X121.476 Y110.627 E0.03878
G1 X120.365 Y110.22 E0.07813
G1 X119.378 Y109.65 E0.11604
G1 X118.48 Y108.9 E0.15496
G1 X117.736 Y108.006 E0.19364
G1 X117.152 Y106.994 E0.2325
G1 X116.756 Y105.906 E0.27101
G1 X116.554 Y104.765 E0.30955
G1 X116.553 Y103.653 E0.34654
G1 X116.561 Y103.548 E0.35004
G1 X116.752 Y102.456 E0.38691
G1 X117.155 Y101.351 E0.42603
G1 X117.675 Y100.456 E0.46046
G1 X118.357 Y99.64 E0.49583
G1 X119.253 Y98.888 E0.53474
G1 X120.254 Y98.31 E0.57318
G1 X121.355 Y97.908 E0.61217
G1 X122.495 Y97.708 E0.65066
G1 X123.662 Y97.708 E0.68948
G1 X124.809 Y97.912 E0.72822
G1 X125.921 Y98.319 E0.76761
G1 X126.905 Y98.889 E0.80543
G1 X127.802 Y99.64 E0.84434
G1 X128.551 Y100.53 E0.88303
G1 X129.134 Y101.545 E0.92196
G1 X129.529 Y102.629 E0.96034
G1 X129.733 Y103.78 E0.99922
G1 X129.733 Y104.946 E1.038
G1 X129.533 Y106.083 E1.07639
G1 X129.131 Y107.188 E1.1155
G1 X128.61 Y108.083 E1.14995
G1 X127.928 Y108.9 E1.18534
G1 X127.037 Y109.649 E1.22406
G1 X126.032 Y110.229 E1.26265
G1 X124.935 Y110.629 E1.30149
G1 X123.787 Y110.831 E1.34026
G1 X122.624 Y110.831 E1.37894
G0 F6000 X122.643 Y110.428
;TYPE:WALL-OUTER
G1 F1200 X121.58 Y110.241 E1.41484
G1 X120.545 Y109.863 E1.45149
G1 X119.607 Y109.32 E1.48753
G1 X118.753 Y108.603 E1.52462
G1 X118.054 Y107.762 E1.56099
G1 X117.521 Y106.839 E1.59644
G1 X117.142 Y105.802 E1.63317
G1 X116.956 Y104.741 E1.66899
G1 X116.953 Y103.653 E1.70518
G1 X117.138 Y102.573 E1.74162
G1 X117.526 Y101.508 E1.77932
G1 X117.993 Y100.7 E1.81036
G1 X118.64 Y99.923 E1.84399
G1 X119.497 Y99.209 E1.88109
G1 X120.41 Y98.681 E1.91617
G1 X121.473 Y98.293 E1.95381
G1 X122.518 Y98.11 E1.9891
G1 X123.643 Y98.111 E2.02651
G1 X124.705 Y98.298 E2.06238
G1 X125.741 Y98.676 E2.09906
G1 X126.664 Y99.209 E2.13451
G1 X127.52 Y99.924 E2.1716
G1 X128.232 Y100.777 E2.20856
G1 X128.765 Y101.7 E2.24401
G1 X129.143 Y102.733 E2.2806
G1 X129.33 Y103.798 E2.31656
G1 X129.331 Y104.923 E2.35398
G1 X129.148 Y105.966 E2.3892
G1 X128.76 Y107.031 E2.4269
G1 X128.292 Y107.839 E2.45795
G1 X127.645 Y108.617 E2.49161
G1 X126.79 Y109.33 E2.52864
G1 X125.876 Y109.858 E2.56374
G1 X124.847 Y110.235 E2.60019
G1 X123.768 Y110.428 E2.63665
G1 X122.643 Y110.428 E2.67407
G1 F2700 E-2.32593
G0 F6000 X122.591 Y110.723
G0 X123.773 Y110.67
G0 X124.892 Y110.473
G0 X125.959 Y110.085
G0 X126.942 Y109.517
G0 X127.813 Y108.788
G0 X128.478 Y107.992
G0 X128.987 Y107.114
G0 X129.375 Y106.047
G0 X129.572 Y104.928
G0 X129.572 Y104.01
G0 X129.32 Y101.523
G0 X140.875 Y89.912
G0 X141.982 Y90.121
;TYPE:WALL-INNER
G1 F2700 E2.67407
G1 F1200 X140.871 Y89.714 E2.71342
G1 X139.884 Y89.144 E2.75133
G1 X138.986 Y88.394 E2.79025
G1 X138.242 Y87.5 E2.82893
G1 X137.658 Y86.488 E2.86779
G1 X137.262 Y85.4 E2.9063
G1 X137.06 Y84.259 E2.94484
G1 X137.059 Y83.147 E2.98183
G1 X137.067 Y83.042 E2.98533
G1 X137.258 Y81.95 E3.0222
G1 X137.661 Y80.845 E3.06132
G1 X138.181 Y79.95 E3.09575
G1 X138.863 Y79.134 E3.13112
G1 X139.759 Y78.382 E3.17003
G1 X140.76 Y77.804 E3.20847
G1 X141.861 Y77.402 E3.24745
G1 X143.001 Y77.202 E3.28595
G1 X144.168 Y77.202 E3.32476
G1 X145.315 Y77.406 E3.36351
G1 X146.427 Y77.813 E3.4029
G1 X147.411 Y78.383 E3.44072
G1 X148.308 Y79.134 E3.47963
G1 X149.057 Y80.024 E3.51832
G1 X149.64 Y81.039 E3.55725
G1 X150.035 Y82.122 E3.59559
G1 X150.239 Y83.274 E3.6345
G1 X150.239 Y84.44 E3.67329
G1 X150.039 Y85.577 E3.71168
G1 X149.637 Y86.682 E3.75079
G1 X149.116 Y87.577 E3.78524
G1 X148.434 Y88.394 E3.82063
G1 X147.543 Y89.143 E3.85935
G1 X146.538 Y89.723 E3.89794
G1 X145.442 Y90.122 E3.93674
G1 X144.293 Y90.325 E3.97554
G1 X143.13 Y90.325 E4.01422
G1 X141.982 Y90.121 E4.05301
G0 F6000 X142.086 Y89.735
;TYPE:WALL-OUTER
G1 F1200 X141.051 Y89.357 E4.08965
G1 X140.113 Y88.814 E4.1257
G1 X139.259 Y88.097 E4.16279
G1 X138.56 Y87.256 E4.19916
G1 X138.027 Y86.333 E4.23461
G1 X137.648 Y85.296 E4.27133
G1 X137.462 Y84.235 E4.30716
G1 X137.461 Y83.111 E4.34455
G1 X137.644 Y82.067 E4.3798
G1 X138.032 Y81.002 E4.4175
G1 X138.499 Y80.194 E4.44854
G1 X139.146 Y79.417 E4.48217
G1 X140.003 Y78.703 E4.51927
G1 X140.916 Y78.175 E4.55435
G1 X141.979 Y77.787 E4.59198
G1 X143.024 Y77.604 E4.62727
G1 X144.149 Y77.605 E4.66469
G1 X145.211 Y77.792 E4.70055
G1 X146.247 Y78.17 E4.73723
G1 X147.17 Y78.703 E4.77268
G1 X148.026 Y79.418 E4.80978
G1 X148.738 Y80.271 E4.84673
G1 X149.271 Y81.194 E4.88218
G1 X149.649 Y82.226 E4.91874
G1 X149.839 Y83.327 E4.9559
G1 X149.837 Y84.417 E4.99215
G1 X149.654 Y85.46 E5.02737
G1 X149.266 Y86.525 E5.06507
G1 X148.798 Y87.333 E5.09613
G1 X148.151 Y88.111 E5.12978
G1 X147.296 Y88.824 E5.16681
G1 X146.382 Y89.352 E5.20192
G1 X145.353 Y89.729 E5.23837
G1 X144.274 Y89.922 E5.27483
G1 X143.149 Y89.922 E5.31224
G1 X142.086 Y89.735 E5.34814
G1 F2700 E0.34814
G0 F6000 X142.034 Y90.029
G0 X143.144 Y90.164
G0 X144.279 Y90.164
G0 X145.398 Y89.967
G0 X146.465 Y89.579
G0 X147.448 Y89.011
G0 X148.319 Y88.282
G0 X148.984 Y87.486
G0 X149.493 Y86.608
G0 X149.881 Y85.541
G0 X150.078 Y84.422
G0 X150.078 Y83.504
G0 X149.826 Y81.017
G0 X161.381 Y69.406
G0 X162.488 Y69.615
;TYPE:WALL-INNER
G1 F2700 E5.34814
G1 F1200 X161.377 Y69.208 E5.3875
G1 X160.39 Y68.638 E5.4254
G1 X159.492 Y67.888 E5.46432
G1 X158.748 Y66.994 E5.503
G1 X158.164 Y65.982 E5.54187
G1 X157.768 Y64.894 E5.58037
G1 X157.566 Y63.753 E5.61891
G1 X157.565 Y62.641 E5.6559
G1 X157.573 Y62.536 E5.6594
G1 X157.764 Y61.444 E5.69627
G1 X158.167 Y60.339 E5.73539
G1 X158.687 Y59.444 E5.76982
G1 X159.369 Y58.628 E5.80519
G1 X160.265 Y57.876 E5.8441
G1 X161.266 Y57.298 E5.88254
G1 X162.367 Y56.896 E5.92153
G1 X163.507 Y56.696 E5.96002
G1 X164.674 Y56.696 E5.99884
G1 X165.821 Y56.9 E6.03759
G1 X166.932 Y57.306 E6.07693
G1 X167.919 Y57.878 E6.11487
G1 X168.815 Y58.629 E6.15376
G1 X169.563 Y59.522 E6.1925
G1 X170.135 Y60.509 E6.23044
G1 X170.541 Y61.617 E6.26969
G1 X170.745 Y62.768 E6.30857
G1 X170.745 Y63.934 E6.34735
G1 X170.545 Y65.071 E6.38575
G1 X170.143 Y66.176 E6.42486
G1 X169.622 Y67.071 E6.4593
G1 X168.94 Y67.888 E6.4947
G1 X168.049 Y68.637 E6.53341
G1 X167.044 Y69.217 E6.57201
G1 X165.948 Y69.616 E6.6108
G1 X164.799 Y69.819 E6.64961
G1 X163.636 Y69.819 E6.68829
G1 X162.488 Y69.615 E6.72707
G0 F6000 X162.592 Y69.229
;TYPE:WALL-OUTER
G1 F1200 X161.557 Y68.851 E6.76372
G1 X160.619 Y68.308 E6.79977
G1 X159.765 Y67.591 E6.83685
G1 X159.066 Y66.75 E6.87323
G1 X158.533 Y65.827 E6.90868
G1 X158.154 Y64.79 E6.9454
G1 X157.968 Y63.729 E6.98123
G1 X157.965 Y62.641 E7.01741
G1 X158.15 Y61.561 E7.05386
G1 X158.538 Y60.496 E7.09156
G1 X159.005 Y59.688 E7.1226
G1 X159.652 Y58.911 E7.15623
G1 X160.509 Y58.197 E7.19333
G1 X161.422 Y57.669 E7.22841
G1 X162.485 Y57.281 E7.26604
G1 X163.53 Y57.098 E7.30133
G1 X164.655 Y57.099 E7.33875
G1 X165.717 Y57.286 E7.37461
G1 X166.742 Y57.659 E7.41089
G1 X167.69 Y58.206 E7.44729
G1 X168.532 Y58.912 E7.48384
G1 X169.235 Y59.751 E7.52025
G1 X169.772 Y60.678 E7.55588
G1 X170.155 Y61.721 E7.59283
G1 X170.342 Y62.786 E7.6288
G1 X170.343 Y63.911 E7.66621
G1 X170.16 Y64.954 E7.70144
G1 X169.772 Y66.019 E7.73913
G1 X169.304 Y66.827 E7.77019
G1 X168.657 Y67.605 E7.80385
G1 X167.802 Y68.318 E7.84087
G1 X166.888 Y68.846 E7.87598
G1 X165.859 Y69.223 E7.91243
G1 X164.78 Y69.416 E7.94889
G1 X163.655 Y69.416 E7.98631
G1 X162.592 Y69.229 E8.0222
G1 F2700 E3.0222
G0 F6000 X162.54 Y69.523
G0 X163.65 Y69.658
G0 X164.785 Y69.658
G0 X165.904 Y69.461
G0 X166.971 Y69.073
G0 X167.954 Y68.505
G0 X168.825 Y67.776
G0 X169.49 Y66.98
G0 X169.999 Y66.102
G0 X170.387 Y65.035
G0 X170.584 Y63.916
G0 X170.584 Y62.998
G0 X170.332 Y60.511
G0 X180.73 Y48.497
G0 X181.76 Y48.884
;TYPE:WALL-INNER
G1 F2700 E8.0222
G1 F1200 X180.772 Y48.311 E8.06019
G1 X179.876 Y47.562 E8.09903
G1 X179.129 Y46.668 E8.13778
G1 X178.556 Y45.679 E8.1758
G1 X178.149 Y44.569 E8.21512
G1 X177.947 Y43.428 E8.25366
G1 X177.946 Y42.316 E8.29065
G1 X177.954 Y42.211 E8.29415
G1 X178.146 Y41.118 E8.33106
G1 X178.549 Y40.014 E8.37015
G1 X179.129 Y39.015 E8.40857
G1 X179.875 Y38.122 E8.44727
G1 X180.771 Y37.37 E8.48618
G1 X181.772 Y36.792 E8.52462
G1 X182.874 Y36.389 E8.56365
G1 X184.018 Y36.192 E8.60226
G1 X185.179 Y36.19 E8.64087
G1 X186.321 Y36.39 E8.67943
G1 X187.425 Y36.792 E8.71851
G1 X188.426 Y37.371 E8.75697
G1 X189.323 Y38.121 E8.79586
G1 X190.068 Y39.011 E8.83447
G1 X190.649 Y40.016 E8.87308
G1 X191.05 Y41.115 E8.91199
G1 X191.251 Y42.257 E8.95055
G1 X191.25 Y43.42 E8.98923
G1 X191.052 Y44.565 E9.02788
G1 X190.649 Y45.67 E9.067
G1 X190.068 Y46.67 E9.10547
G1 X189.322 Y47.563 E9.14417
G1 X188.427 Y48.314 E9.18303
G1 X187.426 Y48.892 E9.22148
G1 X186.325 Y49.295 E9.26047
G1 X185.184 Y49.494 E9.29899
G1 X184.013 Y49.494 E9.33794
G1 X182.87 Y49.291 E9.37655
G1 X181.76 Y48.884 E9.41587
G0 F6000 X181.95 Y48.531
;TYPE:WALL-OUTER
G1 F1200 X181.001 Y47.983 E9.45232
G1 X180.159 Y47.279 E9.48883
G1 X179.457 Y46.439 E9.52524
G1 X178.919 Y45.51 E9.56094
G1 X178.535 Y44.465 E9.59797
G1 X178.349 Y43.404 E9.6338
G1 X178.346 Y42.316 E9.66999
G1 X178.531 Y41.236 E9.70643
G1 X178.92 Y40.171 E9.74414
G1 X179.447 Y39.259 E9.77918
G1 X180.158 Y38.405 E9.81614
G1 X181.015 Y37.691 E9.85324
G1 X181.928 Y37.163 E9.88831
G1 X182.991 Y36.775 E9.92595
G1 X184.053 Y36.59 E9.96181
G1 X185.161 Y36.593 E9.99866
G1 X186.205 Y36.776 E10.03391
G1 X187.269 Y37.163 E10.07157
G1 X188.182 Y37.691 E10.10665
G1 X189.038 Y38.406 E10.14374
G1 X189.75 Y39.259 E10.1807
G1 X190.278 Y40.172 E10.21578
G1 X190.665 Y41.233 E10.25334
G1 X190.849 Y42.28 E10.2887
G1 X190.851 Y43.387 E10.32552
G1 X190.666 Y44.448 E10.36134
G1 X190.278 Y45.513 E10.39904
G1 X189.75 Y46.426 E10.43412
G1 X189.039 Y47.28 E10.47108
G1 X188.183 Y47.993 E10.50813
G1 X187.27 Y48.521 E10.54321
G1 X186.207 Y48.909 E10.58085
G1 X185.161 Y49.092 E10.61616
G1 X184.037 Y49.092 E10.65355
G1 X182.974 Y48.905 E10.68945
G1 X181.95 Y48.531 E10.72571
G1 F2700 E5.72571
G0 F6000 X181.807 Y49.013
G0 X180.73 Y48.497
G0 X109.213 Y123.156
G0 X103.281 Y131.337
;TYPE:WALL-INNER
G1 F2700 E10.72571
G1 F1200 X102.118 Y131.337 E10.76439
G1 X100.97 Y131.133 E10.80317
G1 X99.859 Y130.726 E10.84252
G1 X98.872 Y130.156 E10.88043
G1 X97.974 Y129.406 E10.91934
G1 X97.23 Y128.512 E10.95803
G1 X96.646 Y127.5 E10.99689
G1 X96.25 Y126.412 E11.0354
G1 X96.048 Y125.271 E11.07394
G1 X96.047 Y124.159 E11.11093
G1 X96.055 Y124.054 E11.11443
G1 X96.246 Y122.962 E11.1513
G1 X96.649 Y121.857 E11.19042
G1 X97.169 Y120.962 E11.22485
G1 X97.851 Y120.146 E11.26022
G1 X98.747 Y119.394 E11.29912
G1 X99.748 Y118.816 E11.33757
G1 X100.849 Y118.414 E11.37655
G1 X101.989 Y118.214 E11.41505
G1 X103.156 Y118.214 E11.45386
G1 X104.303 Y118.418 E11.49261
G1 X105.415 Y118.825 E11.532
G1 X106.399 Y119.395 E11.56982
G1 X107.296 Y120.146 E11.60873
G1 X108.045 Y121.036 E11.64742
G1 X108.628 Y122.051 E11.68635
G1 X109.023 Y123.135 E11.72472
G1 X109.227 Y124.286 E11.7636
G1 X109.227 Y125.452 E11.80238
G1 X109.027 Y126.589 E11.84078
G1 X108.625 Y127.694 E11.87989
G1 X108.105 Y128.589 E11.91432
G1 X107.422 Y129.406 E11.94974
G1 X106.531 Y130.155 E11.98845
G1 X105.526 Y130.735 E12.02704
G1 X104.429 Y131.135 E12.06588
G1 X103.281 Y131.337 E12.10465
G0 F6000 X103.262 Y130.934
;TYPE:WALL-OUTER
G1 F1200 X102.137 Y130.934 E12.14207
G1 X101.074 Y130.747 E12.17797
G1 X100.039 Y130.369 E12.21461
G1 X99.101 Y129.826 E12.25066
G1 X98.247 Y129.109 E12.28775
G1 X97.548 Y128.268 E12.32412
G1 X97.015 Y127.345 E12.35957
G1 X96.636 Y126.308 E12.39629
G1 X96.45 Y125.247 E12.43212
G1 X96.447 Y124.159 E12.46831
G1 X96.632 Y123.079 E12.50475
G1 X97.02 Y122.014 E12.54245
G1 X97.487 Y121.206 E12.57349
G1 X98.134 Y120.429 E12.60712
G1 X98.991 Y119.715 E12.64422
G1 X99.904 Y119.187 E12.6793
G1 X100.967 Y118.799 E12.71694
G1 X102.012 Y118.616 E12.75222
G1 X103.137 Y118.617 E12.78964
G1 X104.199 Y118.804 E12.82551
G1 X105.235 Y119.182 E12.86219
G1 X106.158 Y119.715 E12.89764
G1 X107.014 Y120.43 E12.93473
G1 X107.726 Y121.283 E12.97169
G1 X108.259 Y122.206 E13.00714
G1 X108.637 Y123.239 E13.04372
G1 X108.824 Y124.304 E13.07969
G1 X108.825 Y125.429 E13.11711
G1 X108.642 Y126.472 E13.15233
G1 X108.254 Y127.537 E13.19003
G1 X107.787 Y128.345 E13.22107
G1 X107.139 Y129.123 E13.25474
G1 X106.284 Y129.836 E13.29177
G1 X105.37 Y130.364 E13.32688
G1 X104.341 Y130.741 E13.36333
G1 X103.262 Y130.934 E13.39978
G1 F2700 E8.39978
G0 F6000 X103.313 Y131.23
G0 X102.172 Y131.518
G0 X88.89 Y144.708
G0 X83.923 Y151.641
;TYPE:WALL-INNER
G1 F2700 E13.39978
G1 F1200 X82.775 Y151.843 E13.43855
G1 X81.612 Y151.843 E13.47723
G1 X80.464 Y151.639 E13.51602
G1 X79.353 Y151.232 E13.55537
G1 X78.366 Y150.662 E13.59328
G1 X77.468 Y149.912 E13.63219
G1 X76.724 Y149.018 E13.67088
G1 X76.14 Y148.006 E13.70974
G1 X75.744 Y146.918 E13.74825
G1 X75.542 Y145.777 E13.78679
G1 X75.541 Y144.665 E13.82377
G1 X75.549 Y144.56 E13.82728
G1 X75.74 Y143.47 E13.86408
G1 X76.143 Y142.363 E13.90326
G1 X76.663 Y141.468 E13.93769
G1 X77.345 Y140.652 E13.97306
G1 X78.241 Y139.9 E14.01197
G1 X79.242 Y139.322 E14.05041
G1 X80.343 Y138.92 E14.0894
G1 X81.483 Y138.72 E14.12789
G1 X82.65 Y138.72 E14.16671
G1 X83.797 Y138.924 E14.20546
G1 X84.909 Y139.331 E14.24484
G1 X85.893 Y139.901 E14.28266
G1 X86.79 Y140.652 E14.32157
G1 X87.539 Y141.542 E14.36026
G1 X88.122 Y142.557 E14.39919
G1 X88.517 Y143.641 E14.43757
G1 X88.721 Y144.792 E14.47645
G1 X88.721 Y145.958 E14.51523
G1 X88.521 Y147.095 E14.55363
G1 X88.119 Y148.2 E14.59273
G1 X87.599 Y149.095 E14.62716
G1 X86.916 Y149.912 E14.66258
G1 X86.025 Y150.661 E14.70129
G1 X85.02 Y151.241 E14.73989
G1 X83.923 Y151.641 E14.77872
G0 F6000 X83.835 Y151.247
;TYPE:WALL-OUTER
G1 F1200 X82.756 Y151.44 E14.81518
G1 X81.631 Y151.44 E14.8526
G1 X80.568 Y151.253 E14.8885
G1 X79.533 Y150.875 E14.92515
G1 X78.595 Y150.332 E14.96119
G1 X77.741 Y149.615 E14.99828
G1 X77.042 Y148.774 E15.03465
G1 X76.509 Y147.851 E15.0701
G1 X76.13 Y146.814 E15.10683
G1 X75.944 Y145.753 E15.14265
G1 X75.941 Y144.665 E15.17884
G1 X76.126 Y143.587 E15.21522
G1 X76.514 Y142.52 E15.25298
G1 X76.981 Y141.712 E15.28402
G1 X77.628 Y140.935 E15.31765
G1 X78.485 Y140.221 E15.35475
G1 X79.398 Y139.693 E15.38983
G1 X80.461 Y139.305 E15.42747
G1 X81.506 Y139.122 E15.46275
G1 X82.631 Y139.123 E15.50017
G1 X83.693 Y139.31 E15.53604
G1 X84.729 Y139.688 E15.57272
G1 X85.652 Y140.221 E15.60817
G1 X86.508 Y140.936 E15.64526
G1 X87.22 Y141.789 E15.68222
G1 X87.753 Y142.712 E15.71767
G1 X88.131 Y143.745 E15.75425
G1 X88.318 Y144.81 E15.79022
G1 X88.319 Y145.935 E15.82763
G1 X88.136 Y146.978 E15.86285
G1 X87.748 Y148.043 E15.90055
G1 X87.281 Y148.851 E15.93159
G1 X86.633 Y149.629 E15.96527
G1 X85.778 Y150.342 E16.0023
G1 X84.864 Y150.87 E16.03741
G1 X83.835 Y151.247 E16.07386
G1 F2700 E11.07386
G0 F6000 X83.937 Y151.528
G0 X81.666 Y152.024
G0 X68.385 Y166.542
G0 X65.516 Y171.169
;TYPE:WALL-INNER
G1 F2700 E16.07386
G1 F1200 X64.514 Y171.747 E16.11233
G1 X63.417 Y172.147 E16.15117
G1 X62.269 Y172.349 E16.18994
G1 X61.106 Y172.349 E16.22862
G1 X59.958 Y172.145 E16.2674
G1 X58.848 Y171.739 E16.30671
G1 X57.86 Y171.166 E16.3447
G1 X56.964 Y170.417 E16.38354
G1 X56.217 Y169.523 E16.42229
G1 X55.646 Y168.536 E16.46021
G1 X55.238 Y167.424 E16.49961
G1 X55.044 Y166.328 E16.53663
G1 X55.036 Y166.225 E16.54006
G1 X55.035 Y165.112 E16.57708
G1 X55.235 Y163.973 E16.61555
