;FLAVOR:Marlin
;TIME:6764
;Filament used: 4.96035m
;Layer height: 0.2
;MINX:41.251
;MINY:41.251
;MINZ:0.2
;MAXX:197.19
;MAXY:197.169
;MAXZ:5
;Generated with Cura_SteamEngine 5.2.1
M140 S50
M105
M190 S50
M104 S200
M105
M109 S200
M82 ;absolute extrusion mode
; Ender 3 Custom Start G-code
G92 E0 ; Reset Extruder
G28 ; Home all axes
G1 Z2.0 F3000 ; Move Z Axis up little to prevent scratching of Heat Bed
G1 X0.1 Y20 Z0.3 F5000.0 ; Move to start position
G1 X0.1 Y200.0 Z0.3 F1500.0 E15 ; Draw the first line
G1 X0.4 Y200.0 Z0.3 F5000.0 ; Move to side a little
G1 X0.4 Y20 Z0.3 F1500.0 E30 ; Draw the second line
G92 E0 ; Reset Extruder
G1 Z2.0 F3000 ; Move Z Axis up little to prevent scratching of Heat Bed
G1 X5 Y20 Z0.3 F5000.0 ; Move over to prevent blob squish
G92 E0
G92 E0
G1 F2700 E-5
;LAYER_COUNT:25
;LAYER:0
M107
;MESH:Terrific Turing.stl
G0 F6000 X55.695 Y60.414 Z0.2
;TYPE:WALL-INNER
G1 F2700 E0
G1 F1200 X54.547 Y60.618 E0.03878
G1 X53.38 Y60.618 E0.0776
G1 X52.24 Y60.418 E0.11609
G1 X51.139 Y60.016 E0.15508
G1 X50.136 Y59.436 E0.19361
G1 X49.225 Y58.668 E0.23324
G1 X48.493 Y57.793 E0.27119
G1 X47.915 Y56.793 E0.3096
G1 X47.508 Y55.662 E0.34958
G1 X47.314 Y54.52 E0.38811
G1 X47.314 Y53.439 E0.42406
G1 X47.322 Y53.335 E0.42753
G1 X47.512 Y52.243 E0.4644
G1 X47.916 Y51.14 E0.50347
G1 X48.492 Y50.143 E0.54176
G1 X49.243 Y49.246 E0.58067
G1 X50.117 Y48.513 E0.61861
G1 X51.138 Y47.916 E0.65795
G1 X52.242 Y47.513 E0.69704
G1 X53.402 Y47.315 E0.73618
G1 X54.551 Y47.314 E0.77439
G1 X55.664 Y47.509 E0.81198
G1 X56.792 Y47.915 E0.85185
G1 X57.791 Y48.492 E0.89022
G1 X58.671 Y49.228 E0.92838
G1 X59.437 Y50.137 E0.96791
G1 X60.017 Y51.14 E1.00645
G1 X60.418 Y52.237 E1.0453
G1 X60.619 Y53.385 E1.08406
G1 X60.619 Y54.541 E1.12251
G1 X60.415 Y55.693 E1.16142
G1 X60.009 Y56.803 E1.20073
G1 X59.436 Y57.792 E1.23875
G1 X58.688 Y58.685 E1.27749
G1 X57.793 Y59.435 E1.31633
G1 X56.805 Y60.008 E1.35432
G1 X55.695 Y60.414 E1.39363
G0 F6000 X55.591 Y60.028
;TYPE:WALL-OUTER
G1 F1200 X54.528 Y60.215 E1.42953
G1 X53.403 Y60.216 E1.46695
G1 X52.358 Y60.033 E1.50223
G1 X51.295 Y59.645 E1.53987
G1 X50.381 Y59.116 E1.57499
G1 X49.513 Y58.39 E1.61263
G1 X48.814 Y57.549 E1.649
G1 X48.287 Y56.637 E1.68404
G1 X47.898 Y55.572 E1.72175
G1 X47.716 Y54.528 E1.75699
G1 X47.714 Y53.439 E1.79321
G1 X47.898 Y52.361 E1.82959
G1 X48.287 Y51.296 E1.8673
G1 X48.815 Y50.383 E1.90238
G1 X49.526 Y49.529 E1.93934
G1 X50.361 Y48.83 E1.97556
G1 X51.308 Y48.281 E2.01196
G1 X52.331 Y47.906 E2.0482
G1 X53.426 Y47.714 E2.08518
G1 X54.528 Y47.716 E2.12183
G1 X55.581 Y47.901 E2.15739
G1 X56.637 Y48.287 E2.19479
G1 X57.552 Y48.816 E2.22994
G1 X58.4 Y49.522 E2.26664
G1 X59.117 Y50.382 E2.30388
G1 X59.645 Y51.295 E2.33896
G1 X60.033 Y52.356 E2.37653
G1 X60.219 Y53.438 E2.41305
G1 X60.219 Y54.493 E2.44814
G1 X60.029 Y55.589 E2.48513
G1 X59.656 Y56.613 E2.52138
G1 X59.108 Y57.563 E2.55786
G1 X58.405 Y58.402 E2.59427
G1 X57.564 Y59.107 E2.63077
G1 X56.636 Y59.645 E2.66644
G1 X55.591 Y60.028 E2.70346
G1 F2700 E-2.29654
G0 F6000 X55.642 Y60.323
G0 X56.802 Y60.205
G0 X68.233 Y71.636
G0 X76.201 Y80.92
;TYPE:WALL-INNER
G1 F2700 E2.70346
G1 F1200 X75.053 Y81.124 E2.74224
G1 X73.886 Y81.124 E2.78106
G1 X72.746 Y80.924 E2.81955
G1 X71.644 Y80.522 E2.85857
G1 X70.643 Y79.94 E2.89708
G1 X69.748 Y79.192 E2.93587
G1 X68.999 Y78.299 E2.97464
G1 X68.422 Y77.299 E3.01304
G1 X68.019 Y76.195 E3.05213
G1 X67.82 Y75.057 E3.09055
G1 X67.82 Y73.945 E3.12754
G1 X67.829 Y73.841 E3.13101
G1 X68.023 Y72.745 E3.16803
G1 X68.43 Y71.633 E3.20741
G1 X69.002 Y70.646 E3.24536
G1 X69.749 Y69.752 E3.2841
G1 X70.646 Y69.002 E3.32299
G1 X71.633 Y68.43 E3.36094
G1 X72.743 Y68.024 E3.40025
G1 X73.891 Y67.82 E3.43903
G1 X75.052 Y67.82 E3.47764
G1 X76.203 Y68.022 E3.51651
G1 X77.3 Y68.422 E3.55535
G1 X78.299 Y69.002 E3.59377
G1 X79.195 Y69.751 E3.63261
G1 X79.944 Y70.644 E3.67137
G1 X80.523 Y71.646 E3.70986
G1 X80.924 Y72.742 E3.74868
G1 X81.124 Y73.886 E3.78731
G1 X81.124 Y75.052 E3.82609
G1 X80.921 Y76.199 E3.86483
G1 X80.515 Y77.309 E3.90414
G1 X79.942 Y78.298 E3.94216
G1 X79.195 Y79.192 E3.98091
G1 X78.299 Y79.941 E4.01975
G1 X77.311 Y80.514 E4.05774
G1 X76.201 Y80.92 E4.09705
G0 F6000 X76.097 Y80.534
;TYPE:WALL-OUTER
G1 F1200 X75.034 Y80.721 E4.13295
G1 X73.909 Y80.722 E4.17036
G1 X72.864 Y80.539 E4.20565
G1 X71.801 Y80.151 E4.24329
G1 X70.887 Y79.622 E4.27841
G1 X70.031 Y78.909 E4.31546
G1 X69.32 Y78.055 E4.35242
G1 X68.793 Y77.143 E4.38746
G1 X68.405 Y76.078 E4.42516
G1 X68.222 Y75.034 E4.46041
G1 X68.22 Y73.945 E4.49663
G1 X68.409 Y72.849 E4.53362
G1 X68.783 Y71.823 E4.56994
G1 X69.33 Y70.875 E4.60635
G1 X70.032 Y70.035 E4.64276
G1 X70.875 Y69.33 E4.67931
G1 X71.802 Y68.793 E4.71494
G1 X72.847 Y68.41 E4.75196
G1 X73.91 Y68.223 E4.78785
G1 X75.034 Y68.223 E4.82524
G1 X76.114 Y68.416 E4.86173
G1 X77.143 Y68.793 E4.89818
G1 X78.055 Y69.32 E4.93321
G1 X78.912 Y70.034 E4.97031
G1 X79.623 Y70.888 E5.00727
G1 X80.151 Y71.801 E5.04235
G1 X80.539 Y72.862 E5.07993
G1 X80.722 Y73.909 E5.11528
G1 X80.721 Y75.034 E5.15269
G1 X80.535 Y76.095 E5.18852
G1 X80.162 Y77.119 E5.22477
G1 X79.614 Y78.069 E5.26125
G1 X78.912 Y78.909 E5.29766
G1 X78.07 Y79.613 E5.33416
G1 X77.142 Y80.151 E5.36984
G1 X76.097 Y80.534 E5.40686
G1 F2700 E0.40686
G0 F6000 X76.148 Y80.829
G0 X77.308 Y80.711
G0 X88.739 Y92.142
G0 X95.56 Y101.63
;TYPE:WALL-INNER
G1 F2700 E5.40686
G1 F1200 X94.392 Y101.63 E5.4457
G1 X93.252 Y101.43 E5.4842
G1 X92.15 Y101.028 E5.52321
G1 X91.149 Y100.447 E5.56171
G1 X90.255 Y99.698 E5.6005
G1 X89.507 Y98.809 E5.63914
G1 X88.926 Y97.802 E5.67781
G1 X88.526 Y96.702 E5.71674
G1 X88.334 Y95.61 E5.75362
G1 X88.326 Y95.505 E5.75712
G1 X88.327 Y94.392 E5.79414
G1 X88.529 Y93.251 E5.83268
G1 X88.936 Y92.139 E5.87206
G1 X89.508 Y91.152 E5.91001
G1 X90.255 Y90.258 E5.94875
G1 X91.152 Y89.508 E5.98764
G1 X92.139 Y88.936 E6.02559
G1 X93.249 Y88.53 E6.0649
G1 X94.392 Y88.327 E6.10351
G1 X95.56 Y88.326 E6.14236
G1 X96.708 Y88.528 E6.18112
G1 X97.803 Y88.927 E6.21989
G1 X98.806 Y89.508 E6.25844
G1 X99.701 Y90.258 E6.29728
G1 X100.447 Y91.144 E6.3358
G1 X101.03 Y92.155 E6.37462
G1 X101.43 Y93.248 E6.41333
G1 X101.63 Y94.392 E6.45195
G1 X101.63 Y95.559 E6.49077
G1 X101.427 Y96.705 E6.52948
G1 X101.021 Y97.815 E6.56879
G1 X100.449 Y98.804 E6.60679
G1 X99.701 Y99.698 E6.64556
G1 X98.805 Y100.448 E6.68442
G1 X97.817 Y101.02 E6.72239
G1 X96.707 Y101.426 E6.7617
G1 X95.56 Y101.63 E6.80045
G0 F6000 X95.541 Y101.227
;TYPE:WALL-OUTER
G1 F1200 X94.415 Y101.228 E6.8379
G1 X93.37 Y101.045 E6.87319
G1 X92.307 Y100.657 E6.91083
G1 X91.393 Y100.129 E6.94593
G1 X90.538 Y99.415 E6.98298
G1 X89.826 Y98.562 E7.01994
G1 X89.299 Y97.648 E7.05503
G1 X88.911 Y96.584 E7.0927
G1 X88.728 Y95.541 E7.12792
G1 X88.729 Y94.416 E7.16534
G1 X88.915 Y93.355 E7.20116
G1 X89.289 Y92.329 E7.23748
G1 X89.836 Y91.381 E7.27389
G1 X90.538 Y90.541 E7.3103
G1 X91.381 Y89.836 E7.34685
G1 X92.308 Y89.299 E7.38248
G1 X93.353 Y88.916 E7.4195
G1 X94.416 Y88.729 E7.4554
G1 X95.541 Y88.729 E7.49281
G1 X96.62 Y88.922 E7.52927
G1 X97.648 Y89.299 E7.56569
G1 X98.59 Y89.846 E7.60192
G1 X99.418 Y90.541 E7.63787
G1 X100.11 Y91.366 E7.67369
G1 X100.657 Y92.308 E7.70992
G1 X101.045 Y93.368 E7.74746
G1 X101.228 Y94.415 E7.78281
G1 X101.227 Y95.541 E7.82026
G1 X101.041 Y96.601 E7.85606
G1 X100.668 Y97.625 E7.89231
G1 X100.121 Y98.576 E7.9288
G1 X99.418 Y99.415 E7.9652
G1 X98.577 Y100.12 E8.0017
G1 X97.647 Y100.657 E8.03742
G1 X96.603 Y101.04 E8.07441
G1 X95.541 Y101.227 E8.11027
G1 F2700 E3.11027
G0 F6000 X95.592 Y101.523
G0 X96.818 Y101.58
G0 X108.845 Y113.779
G0 X114.898 Y122.136
;TYPE:WALL-INNER
G1 F2700 E8.11027
G1 F1200 X113.758 Y121.936 E8.14877
G1 X112.66 Y121.535 E8.18765
G1 X111.655 Y120.953 E8.22627
G1 X110.761 Y120.204 E8.26506
G1 X110.015 Y119.317 E8.30361
G1 X109.434 Y118.308 E8.34234
G1 X109.032 Y117.208 E8.38129
G1 X108.84 Y116.116 E8.41817
G1 X108.832 Y116.011 E8.42167
G1 X108.833 Y114.898 E8.45869
G1 X109.035 Y113.757 E8.49723
G1 X109.443 Y112.645 E8.53663
G1 X110.014 Y111.659 E8.57452
G1 X110.762 Y110.759 E8.61345
G1 X111.659 Y110.014 E8.65223
G1 X112.676 Y109.429 E8.69125
G1 X113.755 Y109.036 E8.72944
G1 X114.898 Y108.833 E8.76806
G1 X116.066 Y108.832 E8.8069
G1 X117.214 Y109.034 E8.84567
G1 X118.309 Y109.434 E8.88445
G1 X119.312 Y110.014 E8.92298
G1 X120.207 Y110.764 E8.96182
G1 X120.953 Y111.651 E9.00037
G1 X121.536 Y112.662 E9.03919
G1 X121.936 Y113.754 E9.07787
G1 X122.136 Y114.898 E9.11649
G1 X122.136 Y116.065 E9.15531
G1 X121.933 Y117.211 E9.19402
G1 X121.526 Y118.324 E9.23343
G1 X120.955 Y119.31 E9.27133
G1 X120.207 Y120.204 E9.3101
G1 X119.312 Y120.957 E9.349
G1 X118.324 Y121.526 E9.38692
G1 X117.213 Y121.932 E9.42626
G1 X116.066 Y122.136 E9.46501
G1 X114.898 Y122.136 E9.50386
G0 F6000 X114.921 Y121.734
;TYPE:WALL-OUTER
G1 F1200 X113.876 Y121.551 E9.53915
G1 X112.815 Y121.163 E9.57672
G1 X111.871 Y120.615 E9.61302
G1 X111.044 Y119.921 E9.64893
G1 X110.352 Y119.096 E9.68475
G1 X109.806 Y118.154 E9.72096
G1 X109.417 Y117.09 E9.75864
G1 X109.234 Y116.047 E9.79386
G1 X109.235 Y114.922 E9.83128
G1 X109.421 Y113.861 E9.8671
G1 X109.796 Y112.835 E9.90344
G1 X110.342 Y111.887 E9.93982
G1 X111.044 Y111.047 E9.97623
G1 X111.887 Y110.342 E10.01279
G1 X112.815 Y109.806 E10.04843
G1 X113.859 Y109.422 E10.08543
G1 X114.922 Y109.235 E10.12133
G1 X116.047 Y109.235 E10.15874
G1 X117.126 Y109.428 E10.1952
G1 X118.154 Y109.806 E10.23163
G1 X119.096 Y110.352 E10.26784
G1 X119.924 Y111.047 E10.3038
G1 X120.616 Y111.872 E10.33961
G1 X121.163 Y112.815 E10.37587
G1 X121.551 Y113.874 E10.41338
G1 X121.734 Y114.921 E10.44874
G1 X121.733 Y116.047 E10.48619
G1 X121.547 Y117.107 E10.52198
G1 X121.173 Y118.134 E10.55833
G1 X120.627 Y119.082 E10.59472
G1 X119.924 Y119.921 E10.63113
G1 X119.083 Y120.626 E10.66763
G1 X118.154 Y121.163 E10.70332
G1 X117.109 Y121.546 E10.74033
G1 X116.047 Y121.733 E10.7762
G1 X114.921 Y121.734 E10.81365
G1 F2700 E5.81365
G0 F6000 X114.833 Y122.227
G0 X116.012 Y122.317
G0 X129.158 Y135.462
G0 X134.265 Y142.442
;TYPE:WALL-INNER
G1 F2700 E10.81365
G1 F1200 X133.163 Y142.04 E10.85267
G1 X132.162 Y141.459 E10.89116
G1 X131.267 Y140.711 E10.92996
G1 X130.52 Y139.82 E10.96863
G1 X129.94 Y138.814 E11.00725
G1 X129.538 Y137.714 E11.0462
G1 X129.346 Y136.622 E11.08308
G1 X129.338 Y136.517 E11.08658
G1 X129.339 Y135.404 E11.1236
G1 X129.541 Y134.263 E11.16214
G1 X129.949 Y133.151 E11.20154
G1 X130.52 Y132.164 E11.23946
G1 X131.268 Y131.265 E11.27836
G1 X132.165 Y130.52 E11.31714
G1 X133.151 Y129.949 E11.35504
G1 X134.261 Y129.542 E11.39436
G1 X135.404 Y129.339 E11.43297
G1 X136.572 Y129.338 E11.47182
G1 X137.72 Y129.54 E11.51059
G1 X138.815 Y129.94 E11.54936
G1 X139.818 Y130.521 E11.58792
G1 X140.714 Y131.27 E11.62676
G1 X141.461 Y132.161 E11.66543
G1 X142.042 Y133.168 E11.7041
G1 X142.442 Y134.261 E11.74281
G1 X142.642 Y135.405 E11.78144
G1 X142.642 Y136.571 E11.82022
G1 X142.439 Y137.717 E11.85893
G1 X142.032 Y138.83 E11.89834
G1 X141.461 Y139.817 E11.93627
G1 X140.713 Y140.71 E11.97501
G1 X139.818 Y141.46 E12.01385
G1 X138.83 Y142.032 E12.05182
G1 X137.719 Y142.438 E12.09116
G1 X136.572 Y142.642 E12.12991
G1 X135.405 Y142.642 E12.16873
G1 X134.265 Y142.442 E12.20722
G0 F6000 X134.383 Y142.057
;TYPE:WALL-OUTER
G1 F1200 X133.32 Y141.669 E12.24486
G1 X132.406 Y141.141 E12.27997
G1 X131.55 Y140.428 E12.31702
G1 X130.859 Y139.602 E12.35284
G1 X130.312 Y138.66 E12.38907
G1 X129.923 Y137.596 E12.42675
G1 X129.74 Y136.553 E12.46197
G1 X129.741 Y135.428 E12.49939
G1 X129.927 Y134.367 E12.53521
G1 X130.302 Y133.341 E12.57155
G1 X130.848 Y132.393 E12.60793
G1 X131.55 Y131.553 E12.64434
G1 X132.393 Y130.848 E12.68089
G1 X133.321 Y130.312 E12.71654
G1 X134.365 Y129.928 E12.75353
G1 X135.428 Y129.741 E12.78943
G1 X136.553 Y129.741 E12.82685
G1 X137.632 Y129.934 E12.86331
G1 X138.66 Y130.312 E12.89974
G1 X139.602 Y130.859 E12.93597
G1 X140.431 Y131.553 E12.97193
G1 X141.122 Y132.379 E13.00775
G1 X141.669 Y133.321 E13.04398
G1 X142.057 Y134.381 E13.08152
G1 X142.24 Y135.428 E13.11687
G1 X142.239 Y136.553 E13.15429
G1 X142.053 Y137.613 E13.19008
G1 X141.679 Y138.64 E13.22644
G1 X141.133 Y139.588 E13.26282
G1 X140.43 Y140.427 E13.29923
G1 X139.589 Y141.132 E13.33573
G1 X138.66 Y141.669 E13.37142
G1 X137.615 Y142.052 E13.40843
G1 X136.553 Y142.239 E13.4443
G1 X135.428 Y142.24 E13.48172
G1 X134.383 Y142.057 E13.517
G1 F2700 E8.517
G0 F6000 X134.304 Y142.551
G0 X135.326 Y142.812
G0 X149.894 Y158.337
G0 X152.668 Y161.965
;TYPE:WALL-INNER
G1 F2700 E13.517
G1 F1200 X151.773 Y161.217 E13.5558
G1 X151.026 Y160.326 E13.59447
G1 X150.445 Y159.319 E13.63314
G1 X150.044 Y158.223 E13.67196
G1 X149.852 Y157.128 E13.70893
G1 X149.844 Y157.023 E13.71243
G1 X149.845 Y155.91 E13.74945
G1 X150.047 Y154.769 E13.78799
G1 X150.455 Y153.657 E13.82739
G1 X151.026 Y152.67 E13.86531
G1 X151.774 Y151.777 E13.90406
G1 X152.67 Y151.026 E13.94294
G1 X153.657 Y150.455 E13.98087
G1 X154.767 Y150.048 E14.02019
G1 X155.91 Y149.845 E14.0588
G1 X157.077 Y149.844 E14.09762
G1 X158.23 Y150.047 E14.13655
G1 X159.321 Y150.446 E14.17519
G1 X160.324 Y151.027 E14.21374
G1 X161.22 Y151.776 E14.25259
G1 X161.967 Y152.667 E14.29126
G1 X162.548 Y153.674 E14.32993
G1 X162.948 Y154.767 E14.36864
G1 X163.148 Y155.911 E14.40726
G1 X163.148 Y157.083 E14.44625
G1 X162.946 Y158.223 E14.48475
G1 X162.538 Y159.335 E14.52415
G1 X161.967 Y160.323 E14.5621
G1 X161.219 Y161.216 E14.60085
G1 X160.324 Y161.966 E14.63968
G1 X159.336 Y162.538 E14.67766
G1 X158.225 Y162.945 E14.71701
G1 X157.083 Y163.148 E14.75559
G1 X155.911 Y163.148 E14.79457
G1 X154.771 Y162.948 E14.83306
G1 X153.669 Y162.546 E14.87208
G1 X152.668 Y161.965 E14.91057
G0 F6000 X152.912 Y161.647
;TYPE:WALL-OUTER
G1 F1200 X152.056 Y160.934 E14.94763
G1 X151.365 Y160.108 E14.98345
G1 X150.818 Y159.166 E15.01968
G1 X150.429 Y158.103 E15.05733
G1 X150.246 Y157.059 E15.09258
G1 X150.247 Y155.934 E15.13
G1 X150.433 Y154.873 E15.16582
G1 X150.808 Y153.847 E15.20216
G1 X151.354 Y152.899 E15.23854
G1 X152.057 Y152.06 E15.27495
G1 X152.899 Y151.354 E15.3115
G1 X153.827 Y150.818 E15.34714
G1 X154.871 Y150.434 E15.38414
G1 X155.934 Y150.247 E15.42004
G1 X157.059 Y150.247 E15.45745
G1 X158.139 Y150.44 E15.49394
G1 X159.166 Y150.818 E15.53034
G1 X160.108 Y151.365 E15.56657
G1 X160.937 Y152.059 E15.60253
G1 X161.628 Y152.885 E15.63835
G1 X162.175 Y153.827 E15.67458
G1 X162.563 Y154.887 E15.71212
G1 X162.746 Y155.934 E15.74747
G1 X162.746 Y157.059 E15.78489
G1 X162.56 Y158.119 E15.82069
G1 X162.185 Y159.146 E15.85705
G1 X161.639 Y160.094 E15.89344
G1 X160.936 Y160.933 E15.92984
G1 X160.095 Y161.638 E15.96634
G1 X159.166 Y162.175 E16.00203
G1 X158.121 Y162.559 E16.03906
G1 X157.059 Y162.746 E16.07493
G1 X155.934 Y162.746 E16.11234
G1 X154.889 Y162.563 E16.14763
G1 X153.826 Y162.175 E16.18527
G1 X152.912 Y161.647 E16.22038
G1 F2700 E11.22038
G0 F6000 X152.707 Y162.106
G0 X155.832 Y163.318
G0 X170.18 Y177.667
G0 X171.53 Y180.83
;TYPE:WALL-INNER
G1 F2700 E16.22038
G1 F1200 X170.953 Y179.83 E16.25878
G1 X170.55 Y178.727 E16.29783
G1 X170.358 Y177.634 E16.33474
G1 X170.35 Y177.529 E16.33825
G1 X170.351 Y176.416 E16.37526
G1 X170.553 Y175.275 E16.4138
G1 X170.961 Y174.164 E16.45317
G1 X171.532 Y173.176 E16.49112
G1 X172.28 Y172.283 E16.52987
G1 X173.176 Y171.532 E16.56875
G1 X174.164 Y170.961 E16.60671
G1 X175.273 Y170.554 E16.646
G1 X176.416 Y170.351 E16.68461
G1 X177.583 Y170.35 E16.72342
G1 X178.734 Y170.553 E16.7623
G1 X179.831 Y170.953 E16.80113
G1 X180.83 Y171.533 E16.83955
G1 X181.726 Y172.282 E16.8784
G1 X182.475 Y173.175 E16.91716
G1 X183.053 Y174.176 E16.95561
G1 X183.455 Y175.276 E16.99456
G1 X183.654 Y176.417 E17.03308
G1 X183.654 Y177.588 E17.07203
G1 X183.455 Y178.729 E17.11055
G1 X183.057 Y179.823 E17.14927
G1 X182.472 Y180.829 E17.18798
G1 X181.725 Y181.722 E17.2267
G1 X180.831 Y182.471 E17.26549
G1 X179.825 Y183.056 E17.3042
G1 X178.732 Y183.454 E17.34289
G1 X177.588 Y183.654 E17.38151
G1 X176.422 Y183.652 E17.42029
G1 X175.278 Y183.455 E17.4589
G1 X174.175 Y183.053 E17.49795
G1 X173.174 Y182.471 E17.53646
G1 X172.279 Y181.723 E17.57526
G1 X171.53 Y180.83 E17.61402
