;FLAVOR:Marlin
;TIME:6803
;Filament used: 3.92357m
;Layer height: 0.2
;MINX:80.928
;MINY:103.928
;MINZ:0.2
;MAXX:153.611
;MAXY:131.073
;MAXZ:69.6
;Generated with Cura_SteamEngine 5.2.1
M140 S50
M105
M190 S50
M104 S200
M105
M109 S200
M82 ;absolute extrusion mode
; Ender 3 Custom Start G-code
G92 E0 ; Reset Extruder
G28 ; Home all axes
G1 Z2.0 F3000 ; Move Z Axis up little to prevent scratching of Heat Bed
G1 X0.1 Y20 Z0.3 F5000.0 ; Move to start position
G1 X0.1 Y200.0 Z0.3 F1500.0 E15 ; Draw the first line
G1 X0.4 Y200.0 Z0.3 F5000.0 ; Move to side a little
G1 X0.4 Y20 Z0.3 F1500.0 E30 ; Draw the second line
G92 E0 ; Reset Extruder
G1 Z2.0 F3000 ; Move Z Axis up little to prevent scratching of Heat Bed
G1 X5 Y20 Z0.3 F5000.0 ; Move over to prevent blob squish
G92 E0
G92 E0
G1 F2700 E-5
;LAYER_COUNT:348
;LAYER:0
M107
G0 F6000 X85.197 Y107.337 Z0.2
;TYPE:SKIRT
G1 F2700 E0
G1 F1200 X85.944 Y106.77 E0.03119
G1 X86.736 Y106.268 E0.06238
G1 X87.569 Y105.835 E0.0936
G1 X88.435 Y105.475 E0.1248
G1 X89.328 Y105.19 E0.15598
G1 X90.584 Y104.925 E0.19867
G1 X92.006 Y104.711 E0.2465
G1 X92.152 Y104.696 E0.25138
G1 X93.431 Y104.504 E0.2944
G1 X94.233 Y104.414 E0.32124
G1 X96.315 Y104.257 E0.39068
G1 X97.653 Y104.141 E0.43535
G1 X98.459 Y104.101 E0.46219
G1 X100.011 Y104.08 E0.51382
G1 X100.184 Y104.07 E0.51958
G1 X101.247 Y104.069 E0.55494
G1 X107.717 Y104.022 E0.77013
G1 X108.286 Y104.025 E0.78906
G1 X112.42 Y104 E0.92656
G1 X114.445 Y103.933 E0.99395
G1 X114.93 Y103.928 E1.01008
G1 X116.51 Y103.952 E1.06264
G1 X119.063 Y103.948 E1.14755
G1 X120.018 Y103.929 E1.17932
G1 X120.506 Y103.93 E1.19555
G1 X121.413 Y103.952 E1.22573
G1 X122.98 Y104.006 E1.27788
G1 X124.637 Y104.025 E1.33299
G1 X127.013 Y104.022 E1.41202
G1 X128.722 Y104.036 E1.46886
G1 X130.198 Y104.034 E1.51795
G1 X134.233 Y104.072 E1.65216
G1 X136.601 Y104.109 E1.73093
G1 X137.237 Y104.138 E1.75211
G1 X138.7 Y104.246 E1.8009
G1 X140.878 Y104.422 E1.87358
G1 X141.809 Y104.537 E1.90478
G1 X142.335 Y104.639 E1.9226
G1 X143.781 Y104.957 E1.97184
G1 X144.21 Y105.061 E1.98652
G1 X145.054 Y105.301 E2.01571
G1 X145.644 Y105.495 E2.03637
G1 X146.198 Y105.689 E2.05589
G1 X147.067 Y106.039 E2.08705
G1 X147.904 Y106.463 E2.11826
G1 X148.702 Y106.957 E2.14947
G1 X149.454 Y107.516 E2.18064
G1 X150.157 Y108.138 E2.21186
G1 X150.803 Y108.817 E2.24303
G1 X151.39 Y109.549 E2.27424
G1 X151.912 Y110.328 E2.30542
G1 X152.366 Y111.149 E2.33663
G1 X152.748 Y112.005 E2.3678
G1 X153.056 Y112.891 E2.399
G1 X153.279 Y113.761 E2.42888
G1 X153.359 Y114.136 E2.44163
G1 X153.515 Y115.061 E2.47283
G1 X153.599 Y116.228 E2.51174
G1 X153.611 Y116.985 E2.53692
G1 X153.609 Y118.079 E2.57331
G1 X153.599 Y118.744 E2.59543
G1 X153.545 Y119.681 E2.62665
G1 X153.395 Y120.691 E2.66061
G1 X153.323 Y121.059 E2.67308
G1 X153.104 Y121.971 E2.70428
G1 X152.808 Y122.861 E2.73547
G1 X152.437 Y123.722 E2.76665
G1 X151.995 Y124.549 E2.79784
G1 X151.483 Y125.335 E2.82904
G1 X150.906 Y126.075 E2.86025
G1 X150.269 Y126.763 E2.89144
G1 X149.575 Y127.394 E2.92263
G1 X148.83 Y127.963 E2.95381
G1 X147.689 Y128.661 E2.9983
G1 X147.401 Y128.814 E3.00915
G1 X146.719 Y129.149 E3.03442
G1 X145.854 Y129.512 E3.06562
G1 X144.961 Y129.799 E3.09682
G1 X144.246 Y129.971 E3.12128
G1 X142.189 Y130.392 E3.19111
G1 X141.263 Y130.54 E3.2223
G1 X140.749 Y130.588 E3.23947
G1 X139.993 Y130.641 E3.26468
G1 X137.399 Y130.854 E3.35125
G1 X136.719 Y130.889 E3.37389
G1 X134.774 Y130.927 E3.4386
G1 X132.208 Y130.942 E3.52394
G1 X130.324 Y130.966 E3.58661
G1 X128.944 Y130.963 E3.63251
G1 X125.806 Y130.974 E3.73688
G1 X122.422 Y131.006 E3.84944
G1 X120.598 Y131.068 E3.91014
G1 X120.109 Y131.073 E3.9264
G1 X118.899 Y131.06 E3.96665
G1 X118.255 Y131.044 E3.98808
G1 X114.876 Y131.073 E4.10047
G1 X114.476 Y131.069 E4.11377
G1 X112.288 Y131 E4.18658
G1 X110.089 Y130.973 E4.25973
G1 X107.906 Y130.98 E4.33233
G1 X105.898 Y130.961 E4.39912
G1 X104.519 Y130.961 E4.44499
G1 X102.469 Y130.94 E4.51318
G1 X101.614 Y130.939 E4.54161
G1 X98.483 Y130.895 E4.64576
G1 X97.604 Y130.851 E4.67503
G1 X97.077 Y130.803 E4.69263
G1 X94.882 Y130.629 E4.76587
G1 X94.316 Y130.591 E4.78474
G1 X93.38 Y130.488 E4.81606
G1 X92.247 Y130.315 E4.85418
G1 X91.875 Y130.265 E4.86666
G1 X90.468 Y130.039 E4.91406
G1 X89.55 Y129.851 E4.94522
G1 X88.65 Y129.585 E4.97644
G1 X87.777 Y129.244 E5.00761
G1 X86.935 Y128.829 E5.03883
G1 X86.132 Y128.345 E5.07002
G1 X85.374 Y127.793 E5.1012
G1 X84.665 Y127.179 E5.1324
G1 X84.01 Y126.507 E5.16361
G1 X83.416 Y125.782 E5.19478
G1 X82.885 Y125.009 E5.22598
G1 X82.313 Y123.972 E5.26537
G1 X82.19 Y123.718 E5.27475
G1 X81.817 Y122.857 E5.30596
G1 X81.52 Y121.968 E5.33714
G1 X81.299 Y121.057 E5.36831
G1 X81.178 Y120.314 E5.39335
G1 X81.079 Y119.537 E5.4194
G1 X80.977 Y118.528 E5.45313
G1 X80.928 Y117.592 E5.48431
G1 X80.981 Y116.391 E5.52429
G1 X81.081 Y115.428 E5.5565
G1 X81.179 Y114.668 E5.58198
G1 X81.339 Y113.744 E5.61317
G1 X81.576 Y112.837 E5.64435
G1 X81.891 Y111.953 E5.67556
G1 X82.193 Y111.272 E5.70034
G1 X82.325 Y111 E5.7104
G1 X82.77 Y110.175 E5.74157
G1 X83.284 Y109.39 E5.77278
G1 X83.862 Y108.652 E5.80396
G1 X84.502 Y107.966 E5.83517
G1 X85.197 Y107.337 E5.86634
G0 F6000 X85.518 Y107.591
G1 F1200 X86.256 Y107.041 E5.89696
G1 X87.039 Y106.556 E5.92759
G1 X87.861 Y106.141 E5.95822
G1 X88.716 Y105.799 E5.98884
G1 X89.597 Y105.533 E6.01945
G1 X90.644 Y105.321 E6.05498
G1 X92.066 Y105.107 E6.10281
G1 X92.208 Y105.092 E6.10756
G1 X93.49 Y104.9 E6.15068
G1 X94.263 Y104.813 E6.17655
G1 X96.384 Y104.653 E6.24729
G1 X97.688 Y104.54 E6.29083
G1 X98.464 Y104.501 E6.31667
G1 X99.946 Y104.481 E6.36596
G1 X100.185 Y104.47 E6.37392
G1 X101.25 Y104.469 E6.40934
G1 X107.878 Y104.422 E6.6298
G1 X112.435 Y104.4 E6.78137
G1 X114.458 Y104.333 E6.84869
G1 X114.926 Y104.328 E6.86426
G1 X116.5 Y104.352 E6.91661
G1 X119.071 Y104.348 E7.00212
G1 X120.026 Y104.329 E7.03389
G1 X120.496 Y104.33 E7.04953
G1 X121.513 Y104.355 E7.08336
G1 X123.004 Y104.407 E7.13298
G1 X124.633 Y104.425 E7.18717
G1 X127.01 Y104.422 E7.26623
G1 X128.719 Y104.436 E7.32307
G1 X130.314 Y104.434 E7.37612
G1 X134.163 Y104.471 E7.50414
G1 X136.595 Y104.509 E7.58504
G1 X137.208 Y104.537 E7.60545
G1 X138.668 Y104.644 E7.65414
G1 X140.846 Y104.82 E7.72682
G1 X141.759 Y104.934 E7.75742
G1 X142.25 Y105.029 E7.77406
G1 X143.447 Y105.29 E7.8148
G1 X144.115 Y105.449 E7.83764
G1 X144.929 Y105.681 E7.86579
G1 X145.519 Y105.875 E7.88645
G1 X146.064 Y106.066 E7.90566
G1 X146.917 Y106.411 E7.93626
G1 X147.738 Y106.829 E7.9669
G1 X148.519 Y107.316 E7.99752
G1 X149.255 Y107.869 E8.02814
G1 X149.94 Y108.485 E8.05878
G1 X150.569 Y109.157 E8.08939
G1 X151.137 Y109.881 E8.12
G1 X151.64 Y110.652 E8.15062
G1 X152.075 Y111.464 E8.18125
G1 X152.437 Y112.31 E8.21186
G1 X152.725 Y113.185 E8.2425
G1 X152.888 Y113.844 E8.26508
G1 X152.968 Y114.219 E8.27783
G1 X153.121 Y115.127 E8.30846
G1 X153.199 Y116.235 E8.3454
G1 X153.211 Y116.984 E8.37031
G1 X153.209 Y118.073 E8.40654
G1 X153.199 Y118.738 E8.42866
G1 X153.145 Y119.657 E8.45927
G1 X153.003 Y120.614 E8.49145
G1 X152.931 Y120.982 E8.50392
G1 X152.715 Y121.877 E8.53455
G1 X152.422 Y122.75 E8.56518
G1 X152.055 Y123.594 E8.59579
G1 X151.616 Y124.404 E8.62643
G1 X151.108 Y125.172 E8.65705
G1 X150.535 Y125.893 E8.68769
G1 X149.903 Y126.561 E8.71827
G1 X149.214 Y127.172 E8.7489
G1 X148.475 Y127.721 E8.77952
G1 X147.501 Y128.308 E8.81734
G1 X147.213 Y128.461 E8.82819
G1 X146.549 Y128.787 E8.85279
G1 X145.699 Y129.142 E8.88343
G1 X144.822 Y129.422 E8.91405
G1 X144.165 Y129.579 E8.93652
G1 X142.108 Y130 E9.00635
G1 X141.199 Y130.145 E9.03697
G1 X140.721 Y130.189 E9.05293
G1 X139.931 Y130.244 E9.07927
G1 X137.366 Y130.455 E9.16487
G1 X136.711 Y130.489 E9.18669
G1 X134.772 Y130.527 E9.25119
G1 X132.201 Y130.542 E9.33671
G1 X130.325 Y130.566 E9.39911
G1 X128.943 Y130.563 E9.44507
G1 X125.806 Y130.574 E9.54941
G1 X122.405 Y130.606 E9.66253
G1 X120.585 Y130.668 E9.7231
G1 X120.113 Y130.673 E9.7388
G1 X118.908 Y130.66 E9.77888
G1 X118.261 Y130.644 E9.80041
G1 X114.873 Y130.673 E9.9131
G1 X114.488 Y130.669 E9.9259
G1 X112.309 Y130.6 E9.99841
G1 X110.093 Y130.573 E10.07212
G1 X107.91 Y130.58 E10.14473
G1 X105.902 Y130.561 E10.21152
G1 X104.519 Y130.561 E10.25752
G1 X102.474 Y130.54 E10.32554
G1 X101.615 Y130.539 E10.35411
G1 X98.487 Y130.495 E10.45816
G1 X97.641 Y130.452 E10.48633
G1 X94.867 Y130.227 E10.5789
G1 X94.342 Y130.192 E10.5964
G1 X93.441 Y130.093 E10.62655
G1 X92.081 Y129.885 E10.67231
G1 X91.939 Y129.87 E10.67706
G1 X90.532 Y129.644 E10.72445
G1 X89.63 Y129.459 E10.75508
G1 X88.748 Y129.196 E10.78569
G1 X87.892 Y128.857 E10.81631
G1 X87.068 Y128.446 E10.84694
G1 X86.283 Y127.964 E10.87758
G1 X85.543 Y127.417 E10.90818
G1 X84.854 Y126.807 E10.93879
G1 X84.219 Y126.139 E10.96944
G1 X83.645 Y125.42 E11.00004
G1 X83.136 Y124.653 E11.03066
G1 X82.673 Y123.798 E11.063
G1 X82.55 Y123.544 E11.07239
G1 X82.185 Y122.699 E11.103
G1 X81.895 Y121.825 E11.13363
G1 X81.681 Y120.929 E11.16427
G1 X81.575 Y120.264 E11.18667
G1 X81.439 Y119.158 E11.22373
G1 X81.375 Y118.49 E11.24605
G1 X81.327 Y117.571 E11.27666
G1 X81.379 Y116.431 E11.31461
G1 X81.478 Y115.479 E11.34645
G1 X81.576 Y114.719 E11.37193
G1 X81.733 Y113.812 E11.40255
G1 X81.969 Y112.922 E11.43317
G1 X82.28 Y112.056 E11.46378
G1 X82.553 Y111.447 E11.48597
G1 X82.685 Y111.175 E11.49603
G1 X83.122 Y110.365 E11.52664
G1 X83.628 Y109.596 E11.55726
G1 X84.199 Y108.874 E11.58788
G1 X84.831 Y108.204 E11.61851
G1 X85.518 Y107.591 E11.64913
G0 F6000 X85.838 Y107.847
G1 F1200 X86.567 Y107.314 E11.67917
G1 X87.34 Y106.847 E11.70921
G1 X88.151 Y106.45 E11.73924
G1 X88.994 Y106.127 E11.76927
G1 X89.863 Y105.879 E11.79932
G1 X90.703 Y105.717 E11.82778
G1 X93.55 Y105.295 E11.9235
G1 X94.293 Y105.212 E11.94837
G1 X96.364 Y105.056 E12.01744
G1 X97.723 Y104.938 E12.06282
G1 X98.469 Y104.901 E12.08766
G1 X99.776 Y104.884 E12.13113
G1 X100.185 Y104.87 E12.14474
G1 X101.254 Y104.869 E12.1803
G1 X107.874 Y104.822 E12.40049
G1 X112.45 Y104.8 E12.55269
G1 X114.471 Y104.733 E12.61994
G1 X114.921 Y104.728 E12.63491
G1 X116.49 Y104.752 E12.6871
G1 X119.08 Y104.748 E12.77325
G1 X120.034 Y104.729 E12.80498
G1 X120.486 Y104.73 E12.82002
G1 X121.5 Y104.755 E12.85375
G1 X122.987 Y104.807 E12.90324
G1 X124.629 Y104.825 E12.95786
G1 X127.007 Y104.822 E13.03695
G1 X128.717 Y104.836 E13.09383
G1 X130.31 Y104.834 E13.14681
G1 X134.22 Y104.872 E13.27686
G1 X136.588 Y104.909 E13.35563
G1 X137.178 Y104.936 E13.37528
G1 X138.636 Y105.043 E13.4239
G1 X140.814 Y105.219 E13.49658
G1 X141.71 Y105.332 E13.52661
G1 X142.165 Y105.42 E13.54203
G1 X143.362 Y105.681 E13.58277
G1 X144.021 Y105.838 E13.60531
G1 X144.804 Y106.061 E13.63238
G1 X145.394 Y106.255 E13.65304
G1 X145.93 Y106.443 E13.67193
G1 X146.767 Y106.782 E13.70197
G1 X147.571 Y107.194 E13.73202
G1 X148.335 Y107.675 E13.76204
G1 X149.053 Y108.222 E13.79207
G1 X149.721 Y108.831 E13.82213
G1 X150.332 Y109.496 E13.85217
G1 X150.881 Y110.213 E13.8822
G1 X151.365 Y110.975 E13.91223
G1 X151.78 Y111.777 E13.94226
G1 X152.122 Y112.613 E13.9723
G1 X152.389 Y113.476 E14.00235
G1 X152.497 Y113.928 E14.01781
G1 X152.577 Y114.303 E14.03056
G1 X152.726 Y115.194 E14.06061
G1 X152.799 Y116.243 E14.09558
G1 X152.811 Y116.984 E14.12023
G1 X152.809 Y118.067 E14.15625
G1 X152.799 Y118.732 E14.17837
G1 X152.745 Y119.634 E14.20843
G1 X152.61 Y120.538 E14.23883
G1 X152.538 Y120.906 E14.2513
G1 X152.326 Y121.783 E14.28131
G1 X152.036 Y122.639 E14.31137
G1 X151.673 Y123.465 E14.34138
G1 X151.237 Y124.257 E14.37145
G1 X150.733 Y125.006 E14.40147
G1 X150.165 Y125.708 E14.43151
G1 X149.537 Y126.357 E14.46154
G1 X148.854 Y126.948 E14.49158
G1 X148.122 Y127.476 E14.5216
G1 X147.313 Y127.955 E14.55287
G1 X147.025 Y128.108 E14.56372
G1 X146.379 Y128.425 E14.58765
G1 X145.545 Y128.773 E14.61771
G1 X144.684 Y129.045 E14.64774
G1 X144.085 Y129.187 E14.66822
G1 X142.028 Y129.608 E14.73805
G1 X140.693 Y129.79 E14.78287
G1 X139.958 Y129.841 E14.80737
G1 X137.334 Y130.057 E14.89494
G1 X136.703 Y130.089 E14.91595
G1 X134.769 Y130.127 E14.98029
G1 X132.194 Y130.142 E15.06594
G1 X130.326 Y130.166 E15.12807
G1 X128.942 Y130.163 E15.17411
G1 X126.375 Y130.177 E15.25949
G1 X125.804 Y130.174 E15.27848
G1 X122.387 Y130.206 E15.39213
G1 X120.571 Y130.268 E15.45257
G1 X120.117 Y130.273 E15.46767
G1 X118.918 Y130.26 E15.50755
G1 X118.267 Y130.244 E15.52921
G1 X114.869 Y130.273 E15.64223
G1 X114.499 Y130.269 E15.65454
G1 X112.988 Y130.226 E15.70481
G1 X112.328 Y130.2 E15.72678
G1 X110.096 Y130.173 E15.80102
G1 X107.913 Y130.18 E15.87363
G1 X105.905 Y130.161 E15.94042
G1 X104.519 Y130.161 E15.98652
G1 X102.475 Y130.14 E16.05451
G1 X101.615 Y130.139 E16.08311
G1 X98.492 Y130.095 E16.18699
G1 X97.677 Y130.054 E16.21413
G1 X94.925 Y129.83 E16.30597
G1 X94.369 Y129.793 E16.3245
G1 X93.501 Y129.698 E16.35354
G1 X92.189 Y129.497 E16.39769
G1 X92.002 Y129.475 E16.40395
G1 X90.595 Y129.249 E16.45135
G1 X89.711 Y129.066 E16.48138
G1 X88.846 Y128.806 E16.51142
G1 X88.008 Y128.471 E16.54143
G1 X87.202 Y128.062 E16.5715
G1 X86.436 Y127.584 E16.60153
G1 X85.715 Y127.04 E16.63157
G1 X85.045 Y126.435 E16.66159
G1 X84.431 Y125.772 E16.69165
G1 X83.878 Y125.058 E16.72168
G1 X83.391 Y124.298 E16.75171
G1 X83.033 Y123.624 E16.77709
G1 X82.91 Y123.37 E16.78648
G1 X82.553 Y122.54 E16.81653
G1 X82.27 Y121.682 E16.84658
G1 X82.065 Y120.803 E16.8766
G1 X81.972 Y120.213 E16.89646
G1 X81.837 Y119.12 E16.93309
G1 X81.773 Y118.452 E16.95541
G1 X81.727 Y117.55 E16.98545
G1 X81.777 Y116.47 E17.02141
G1 X81.841 Y115.826 E17.04294
G1 X81.973 Y114.771 E17.0783
G1 X82.128 Y113.881 E17.10835
G1 X82.361 Y113.008 E17.1384
G1 X82.67 Y112.16 E17.16842
G1 X82.913 Y111.622 E17.18805
G1 X83.045 Y111.35 E17.19811
G1 X83.474 Y110.555 E17.22815
G1 X83.973 Y109.802 E17.2582
G1 X84.536 Y109.096 E17.28823
G1 X85.159 Y108.443 E17.31825
G1 X85.838 Y107.847 E17.3483
G1 F2700 E12.3483
G0 F6000 X124.847 Y114.352
G0 X125.78 Y114.658
G0 X126.335 Y114.988
G0 X126.652 Y115.231
G0 X128.746 Y117.284
G1 F2700 E17.3483
G1 F1200 X129.046 Y117.273 E17.35828
G1 X129.556 Y117.274 E17.37525
G1 X129.74 Y117.253 E17.38141
G1 X129.992 Y117.261 E17.38979
G1 X130.105 Y117.251 E17.39357
G1 X130.491 Y117.259 E17.40641
G1 X130.642 Y117.245 E17.41145
G1 X130.951 Y117.262 E17.42174
G1 X131.005 Y117.257 E17.42355
G1 X131.428 Y117.279 E17.43764
G1 X131.76 Y117.256 E17.4487
G1 X132.826 Y117.252 E17.48416
G1 X132.946 Y117.264 E17.48817
G1 X134.478 Y117.273 E17.53913
G1 X134.75 Y117.293 E17.5482
G1 X135.922 Y117.297 E17.58718
G1 X136.083 Y117.364 E17.59298
G1 X136.637 Y117.462 E17.61169
G1 X137.155 Y117.486 E17.62894
G1 X136.767 Y117.495 E17.64185
G1 X136.351 Y117.544 E17.65578
G1 X135.92 Y117.702 E17.67105
G1 X135.594 Y117.692 E17.68189
G1 X135.438 Y117.702 E17.68709
G1 X134.861 Y117.696 E17.70629
G1 X134.494 Y117.728 E17.71854
G1 X132.93 Y117.727 E17.77056
G1 X132.77 Y117.742 E17.7759
G1 X132.441 Y117.749 E17.78685
G1 X131.803 Y117.747 E17.80807
G1 X131.299 Y117.731 E17.82484
G1 X130.952 Y117.735 E17.83638
G1 X129.663 Y117.734 E17.87925
G1 X129.54 Y117.72 E17.88337
G1 X129.121 Y117.713 E17.89731
G1 X129.004 Y117.737 E17.90128
G1 X128.745 Y117.722 E17.90991
G1 X128.746 Y117.284 E17.92448
G0 F6000 X128.997 Y116.868
G1 F1200 X129.129 Y116.879 E17.92888
G1 X129.511 Y116.876 E17.94159
G1 X129.68 Y116.857 E17.94725
G1 X129.956 Y116.863 E17.95643
G1 X130.074 Y116.853 E17.96037
G1 X130.455 Y116.861 E17.97304
G1 X130.588 Y116.849 E17.97748
G1 X131.005 Y116.864 E17.99136
G1 X131.4 Y116.88 E18.00451
G1 X131.746 Y116.856 E18.01605
G1 X132.817 Y116.852 E18.05167
G1 X132.948 Y116.864 E18.05604
G1 X134.617 Y116.873 E18.11155
G1 X134.752 Y116.893 E18.11609
G1 X136.001 Y116.897 E18.15764
G1 X136.237 Y116.993 E18.16611
G1 X136.656 Y117.062 E18.18023
G1 X139.29 Y117.181 E18.26793
G1 X139.331 Y117.214 E18.26968
G1 X139.668 Y117.387 E18.28228
G1 X140.041 Y117.488 E18.29513
G1 X139.579 Y117.642 E18.31133
G1 X139.265 Y117.826 E18.32343
G1 X138.479 Y117.829 E18.34958
G1 X138.179 Y117.862 E18.35962
G1 X136.776 Y117.895 E18.40629
G1 X136.4 Y117.943 E18.4189
G1 X135.974 Y118.104 E18.43405
G1 X135.581 Y118.092 E18.44712
G1 X135.443 Y118.102 E18.45173
